;FLAVOR:Marlin
;TIME:718
;Filament used: 0.424855m
;Layer height: 0.2
;MINX:86.32
;MINY:86.32
;MINZ:0.2
;MAXX:133.68
;MAXY:133.68
;MAXZ:2.4
;TARGET_MACHINE.NAME:Creality Ender-3 Pro
;Generated with Cura_SteamEngine 5.9.1
M82 ;absolute extrusion mode
; Ender 3 Custom Start G-code
G92 E0 ; Reset Extruder
G28 ; Home all axes
G1 Z5.0 F3000 ; Move Z Axis up a bit during heating to not damage bed
M104 S175 ; Start heating up the nozzle most of the way
M190 S60 ; Start heating the bed, wait until target temperature reached
M109 S200 ; Finish heating the nozzle
G1 Z2.0 F3000 ; Move Z Axis up little to prevent scratching of Heat Bed
G1 X0.1 Y20 Z0.3 F5000.0 ; Move to start position
G1 X0.1 Y200.0 Z0.3 F1500.0 E15 ; Draw the first line
G1 X0.4 Y200.0 Z0.3 F5000.0 ; Move to side a little
G1 X0.4 Y20 Z0.3 F1500.0 E30 ; Draw the second line
G92 E0 ; Reset Extruder
G1 Z2.0 F3000 ; Move Z Axis up little to prevent scratching of Heat Bed
G1 X5 Y20 Z0.3 F5000.0 ; Move over to prevent blob squish
G92 E0
G92 E0
G1 F1500 E-6.5
;LAYER_COUNT:12
;LAYER:0
M107
G0 F6000 X112.209 Y133.576 Z0.2
;TYPE:SKIRT
G1 F1500 E0
G1 F1200 X111.154 Y133.651 E0.03518
G1 X110.567 Y133.674 E0.05472
G1 X109.862 Y133.68 E0.07817
G1 X108.838 Y133.649 E0.11224
G1 X108.245 Y133.618 E0.13199
G1 X107.5 Y133.547 E0.15688
G1 X106.218 Y133.376 E0.1999
G1 X105.233 Y133.196 E0.2332
G1 X104.072 Y132.927 E0.27284
G1 X103.1 Y132.653 E0.30643
G1 X102.023 Y132.293 E0.3442
G1 X101.441 Y132.084 E0.36477
G1 X100.762 Y131.802 E0.38922
G1 X99.595 Y131.27 E0.43188
G1 X98.72 Y130.821 E0.46459
G1 X97.535 Y130.138 E0.51008
G1 X97.164 Y129.908 E0.5246
G1 X96.613 Y129.544 E0.54656
G1 X96.04 Y129.132 E0.57003
G1 X95.429 Y128.67 E0.59551
G1 X94.87 Y128.216 E0.61946
G1 X94.103 Y127.547 E0.65332
G1 X93.616 Y127.101 E0.67528
G1 X93.17 Y126.656 E0.69623
G1 X92.452 Y125.896 E0.73101
G1 X92.043 Y125.441 E0.75136
G1 X91.619 Y124.928 E0.77349
G1 X90.975 Y124.097 E0.80846
G1 X90.495 Y123.441 E0.8355
G1 X90.094 Y122.84 E0.85953
G1 X89.781 Y122.334 E0.87932
G1 X89.363 Y121.619 E0.90686
G1 X89.056 Y121.049 E0.9284
G1 X88.601 Y120.137 E0.96229
G1 X88.318 Y119.528 E0.98463
G1 X88.071 Y118.934 E1.00603
G1 X87.705 Y117.972 E1.04026
G1 X87.489 Y117.355 E1.062
G1 X87.301 Y116.743 E1.0833
G1 X87.032 Y115.757 E1.11729
G1 X86.882 Y115.145 E1.13825
G1 X86.741 Y114.435 E1.16232
G1 X86.54 Y113.206 E1.20374
G1 X86.423 Y112.198 E1.23749
G1 X86.349 Y111.15 E1.27244
G1 X86.323 Y110.556 E1.29221
G1 X86.32 Y109.863 E1.31526
G1 X86.351 Y108.838 E1.34937
G1 X86.382 Y108.245 E1.36912
G1 X86.453 Y107.5 E1.39401
G1 X86.624 Y106.218 E1.43703
G1 X86.804 Y105.233 E1.47033
G1 X87.073 Y104.072 E1.50997
G1 X87.346 Y103.101 E1.54352
G1 X87.706 Y102.023 E1.58132
G1 X87.911 Y101.454 E1.60143
G1 X88.197 Y100.764 E1.62628
G1 X88.729 Y99.598 E1.6689
G1 X89.176 Y98.725 E1.70153
G1 X89.696 Y97.816 E1.73636
G1 X90.094 Y97.162 E1.76182
G1 X90.471 Y96.593 E1.78452
G1 X90.912 Y95.979 E1.80967
G1 X91.339 Y95.418 E1.83311
G1 X91.784 Y94.87 E1.85659
G1 X92.454 Y94.102 E1.89049
G1 X92.899 Y93.616 E1.91241
G1 X93.344 Y93.17 E1.93336
G1 X94.104 Y92.452 E1.96814
G1 X94.559 Y92.043 E1.98849
G1 X95.072 Y91.619 E2.01062
G1 X95.903 Y90.975 E2.04559
G1 X96.558 Y90.497 E2.07256
G1 X97.025 Y90.181 E2.09131
G1 X97.641 Y89.795 E2.11549
G1 X98.311 Y89.402 E2.14133
G1 X98.937 Y89.063 E2.16501
G1 X99.859 Y88.603 E2.19928
G1 X100.49 Y88.311 E2.2224
G1 X101.057 Y88.074 E2.24284
G1 X102.024 Y87.706 E2.27725
G1 X102.613 Y87.499 E2.29802
G1 X103.239 Y87.306 E2.31981
G1 X104.237 Y87.034 E2.35421
G1 X104.835 Y86.887 E2.37469
G1 X105.555 Y86.743 E2.39911
G1 X106.825 Y86.537 E2.44191
G1 X107.791 Y86.424 E2.47425
G1 X108.845 Y86.349 E2.5094
G1 X109.447 Y86.323 E2.52944
G1 X110.138 Y86.32 E2.55242
G1 X111.162 Y86.351 E2.5865
G1 X111.755 Y86.382 E2.60625
G1 X112.5 Y86.453 E2.63114
G1 X113.782 Y86.624 E2.67416
G1 X114.767 Y86.804 E2.70746
G1 X115.928 Y87.073 E2.7471
G1 X116.9 Y87.347 E2.78069
G1 X117.977 Y87.707 E2.81846
G1 X118.559 Y87.916 E2.83902
G1 X119.238 Y88.198 E2.86348
G1 X120.402 Y88.729 E2.90603
G1 X121.275 Y89.176 E2.93865
G1 X122.183 Y89.696 E2.97345
G1 X122.836 Y90.092 E2.99885
G1 X123.394 Y90.459 E3.02107
G1 X123.974 Y90.877 E3.04485
G1 X124.571 Y91.33 E3.06977
G1 X125.13 Y91.784 E3.09372
G1 X125.898 Y92.454 E3.12762
G1 X126.384 Y92.899 E3.14954
G1 X126.83 Y93.344 E3.17049
G1 X127.548 Y94.104 E3.20527
G1 X127.957 Y94.559 E3.22562
G1 X128.381 Y95.072 E3.24775
G1 X129.025 Y95.903 E3.28272
G1 X129.503 Y96.557 E3.30966
G1 X129.819 Y97.023 E3.32839
G1 X130.202 Y97.634 E3.35237
G1 X130.592 Y98.299 E3.37801
G1 X130.934 Y98.931 E3.40192
G1 X131.397 Y99.859 E3.43641
G1 X131.689 Y100.49 E3.45953
G1 X131.926 Y101.057 E3.47997
G1 X132.294 Y102.024 E3.51439
G1 X132.501 Y102.613 E3.53515
G1 X132.694 Y103.239 E3.55694
G1 X132.966 Y104.237 E3.59134
G1 X133.113 Y104.834 E3.61179
G1 X133.257 Y105.551 E3.63612
G1 X133.459 Y106.784 E3.67767
G1 X133.576 Y107.79 E3.71136
G1 X133.651 Y108.846 E3.74657
G1 X133.677 Y109.444 E3.76648
G1 X133.68 Y110.137 E3.78953
G1 X133.649 Y111.162 E3.82364
G1 X133.618 Y111.755 E3.84339
G1 X133.547 Y112.5 E3.86828
G1 X133.379 Y113.764 E3.91069
G1 X133.196 Y114.765 E3.94453
G1 X132.961 Y115.783 E3.97928
G1 X132.812 Y116.364 E3.99923
G1 X132.629 Y116.975 E4.02044
G1 X132.293 Y117.982 E4.05575
G1 X132.089 Y118.546 E4.0757
G1 X131.803 Y119.236 E4.10054
G1 X131.271 Y120.402 E4.14317
G1 X130.824 Y121.275 E4.17579
G1 X130.304 Y122.184 E4.21062
G1 X129.906 Y122.838 E4.23609
G1 X129.529 Y123.407 E4.25879
G1 X129.088 Y124.021 E4.28393
G1 X128.661 Y124.582 E4.30738
G1 X128.216 Y125.13 E4.33086
G1 X127.546 Y125.898 E4.36476
G1 X127.101 Y126.384 E4.38667
G1 X126.656 Y126.83 E4.40763
G1 X125.896 Y127.548 E4.4424
G1 X125.441 Y127.957 E4.46275
G1 X124.929 Y128.38 E4.48484
G1 X124.106 Y129.018 E4.51948
G1 X123.441 Y129.504 E4.54687
G1 X122.842 Y129.903 E4.57081
G1 X122.055 Y130.385 E4.60151
G1 X121.632 Y130.63 E4.61776
G1 X121.063 Y130.937 E4.63927
G1 X120.141 Y131.397 E4.67354
G1 X119.51 Y131.689 E4.69666
G1 X118.943 Y131.926 E4.7171
G1 X117.976 Y132.294 E4.75152
G1 X117.387 Y132.501 E4.77228
G1 X116.761 Y132.694 E4.79407
G1 X115.763 Y132.966 E4.82847
G1 X115.165 Y133.113 E4.84895
G1 X114.445 Y133.257 E4.87338
G1 X113.175 Y133.463 E4.91617
G1 X112.209 Y133.576 E4.94852
G0 F6000 X113.128 Y133.066
G1 F1200 X112.181 Y133.177 E4.98023
G1 X111.137 Y133.251 E5.01504
G1 X110.558 Y133.275 E5.03431
G1 X109.874 Y133.28 E5.05707
G1 X108.859 Y133.25 E5.09084
G1 X108.283 Y133.22 E5.11002
G1 X107.553 Y133.15 E5.13441
G1 X106.29 Y132.982 E5.17679
G1 X105.323 Y132.806 E5.20948
G1 X104.18 Y132.542 E5.2485
G1 X103.227 Y132.274 E5.28143
G1 X102.158 Y131.917 E5.31891
G1 X101.594 Y131.714 E5.33885
G1 X100.928 Y131.438 E5.36283
G1 X99.778 Y130.914 E5.40486
G1 X98.92 Y130.474 E5.43693
G1 X97.735 Y129.791 E5.48242
G1 X97.384 Y129.574 E5.49615
G1 X96.846 Y129.219 E5.51758
G1 X96.281 Y128.813 E5.54073
G1 X95.681 Y128.359 E5.56575
G1 X95.133 Y127.914 E5.58923
G1 X94.373 Y127.252 E5.62275
G1 X93.899 Y126.818 E5.64413
G1 X93.461 Y126.381 E5.66471
G1 X92.749 Y125.628 E5.69917
G1 X92.351 Y125.186 E5.71896
G1 X91.935 Y124.683 E5.74067
G1 X91.298 Y123.861 E5.77526
G1 X90.828 Y123.219 E5.80172
G1 X90.434 Y122.629 E5.82532
G1 X90.126 Y122.132 E5.84476
G1 X89.715 Y121.429 E5.87185
G1 X89.414 Y120.87 E5.89296
G1 X88.964 Y119.968 E5.92649
G1 X88.687 Y119.374 E5.94829
G1 X88.445 Y118.792 E5.96925
G1 X88.082 Y117.839 E6.00317
G1 X87.871 Y117.238 E6.02436
G1 X87.687 Y116.638 E6.04523
G1 X87.421 Y115.662 E6.07888
G1 X87.271 Y115.05 E6.09984
G1 X87.136 Y114.37 E6.12289
G1 X86.935 Y113.141 E6.16431
G1 X86.822 Y112.17 E6.19683
G1 X86.749 Y111.132 E6.23144
G1 X86.723 Y110.554 E6.25068
G1 X86.72 Y109.875 E6.27326
G1 X86.75 Y108.859 E6.30707
G1 X86.78 Y108.283 E6.32625
G1 X86.85 Y107.553 E6.35065
G1 X87.018 Y106.29 E6.39302
G1 X87.194 Y105.323 E6.42571
G1 X87.458 Y104.18 E6.46473
G1 X87.726 Y103.227 E6.49766
G1 X88.082 Y102.158 E6.53513
G1 X88.28 Y101.607 E6.55461
G1 X88.561 Y100.93 E6.57899
G1 X89.085 Y99.78 E6.62102
G1 X89.523 Y98.924 E6.653
G1 X90.038 Y98.024 E6.68749
G1 X90.427 Y97.383 E6.71243
G1 X90.796 Y96.826 E6.73465
G1 X91.23 Y96.221 E6.75941
G1 X91.649 Y95.67 E6.78244
G1 X92.086 Y95.133 E6.80546
G1 X92.749 Y94.372 E6.83903
G1 X93.182 Y93.899 E6.86036
G1 X93.619 Y93.461 E6.88094
G1 X94.372 Y92.749 E6.91541
G1 X94.814 Y92.351 E6.93519
G1 X95.317 Y91.935 E6.9569
G1 X96.139 Y91.298 E6.99149
G1 X96.782 Y90.828 E7.01798
G1 X97.237 Y90.52 E7.03625
G1 X97.844 Y90.14 E7.06007
G1 X98.501 Y89.754 E7.08542
G1 X99.116 Y89.421 E7.10868
G1 X100.027 Y88.966 E7.14255
G1 X100.644 Y88.68 E7.16517
G1 X101.2 Y88.448 E7.1852
G1 X102.157 Y88.083 E7.21927
G1 X102.731 Y87.881 E7.23951
G1 X103.344 Y87.692 E7.26085
G1 X104.333 Y87.422 E7.29494
G1 X104.913 Y87.279 E7.31481
G1 X105.619 Y87.138 E7.33876
G1 X106.872 Y86.934 E7.38098
G1 X107.819 Y86.823 E7.41269
G1 X108.863 Y86.749 E7.44751
G1 X109.449 Y86.723 E7.46701
G1 X110.126 Y86.72 E7.48953
G1 X111.141 Y86.75 E7.52331
G1 X111.717 Y86.78 E7.54249
G1 X112.447 Y86.85 E7.56688
G1 X113.71 Y87.018 E7.60926
G1 X114.677 Y87.194 E7.64195
G1 X115.82 Y87.458 E7.68097
G1 X116.773 Y87.726 E7.71389
G1 X117.842 Y88.083 E7.75138
G1 X118.406 Y88.286 E7.77132
G1 X119.072 Y88.562 E7.79529
G1 X120.22 Y89.085 E7.83725
G1 X121.076 Y89.523 E7.86923
G1 X121.976 Y90.038 E7.90372
G1 X122.616 Y90.426 E7.92861
G1 X123.16 Y90.784 E7.95027
G1 X123.732 Y91.196 E7.97372
G1 X124.319 Y91.641 E7.99822
G1 X124.867 Y92.086 E8.0217
G1 X125.628 Y92.749 E8.05527
G1 X126.101 Y93.182 E8.0766
G1 X126.539 Y93.619 E8.09718
G1 X127.251 Y94.372 E8.13164
G1 X127.649 Y94.814 E8.15143
G1 X128.065 Y95.317 E8.17314
G1 X128.702 Y96.139 E8.20772
G1 X129.172 Y96.782 E8.23422
G1 X129.48 Y97.236 E8.25246
G1 X129.857 Y97.837 E8.27606
G1 X130.24 Y98.489 E8.30121
G1 X130.576 Y99.11 E8.32469
G1 X131.034 Y100.027 E8.35879
G1 X131.32 Y100.644 E8.3814
G1 X131.552 Y101.2 E8.40144
G1 X131.917 Y102.157 E8.43551
G1 X132.119 Y102.731 E8.45575
G1 X132.308 Y103.344 E8.47708
G1 X132.578 Y104.333 E8.51118
G1 X132.721 Y104.913 E8.53105
G1 X132.862 Y105.616 E8.5549
G1 X133.064 Y106.849 E8.59645
G1 X133.177 Y107.818 E8.6289
G1 X133.251 Y108.864 E8.66378
G1 X133.277 Y109.446 E8.68316
G1 X133.28 Y110.125 E8.70574
G1 X133.25 Y111.141 E8.73955
G1 X133.22 Y111.717 E8.75873
G1 X133.15 Y112.447 E8.78312
G1 X132.982 Y113.711 E8.82553
G1 X132.806 Y114.675 E8.85812
G1 X132.574 Y115.684 E8.89256
G1 X132.429 Y116.249 E8.91196
G1 X132.249 Y116.849 E8.9328
G1 X131.917 Y117.846 E8.96775
G1 X131.72 Y118.393 E8.98708
G1 X131.439 Y119.07 E9.01146
G1 X130.915 Y120.22 E9.0535
G1 X130.477 Y121.076 E9.08548
G1 X129.962 Y121.976 E9.11997
G1 X129.573 Y122.617 E9.1449
G1 X129.204 Y123.174 E9.16713
G1 X128.77 Y123.779 E9.19189
G1 X128.351 Y124.33 E9.21491
G1 X127.914 Y124.867 E9.23794
G1 X127.251 Y125.628 E9.27151
G1 X126.818 Y126.101 E9.29284
G1 X126.381 Y126.539 E9.31342
G1 X125.628 Y127.251 E9.34789
G1 X125.186 Y127.649 E9.36767
G1 X124.684 Y128.064 E9.38933
G1 X123.87 Y128.695 E9.42359
G1 X123.219 Y129.171 E9.45041
G1 X122.633 Y129.562 E9.47384
G1 X121.855 Y130.039 E9.50419
G1 X121.442 Y130.278 E9.52006
G1 X120.884 Y130.579 E9.54115
G1 X119.973 Y131.034 E9.57502
G1 X119.356 Y131.32 E9.59764
G1 X118.8 Y131.552 E9.61768
G1 X117.843 Y131.917 E9.65174
G1 X117.269 Y132.119 E9.67198
G1 X116.656 Y132.308 E9.69332
G1 X115.667 Y132.578 E9.72742
G1 X115.087 Y132.721 E9.74729
G1 X114.381 Y132.862 E9.77123
G1 X113.128 Y133.066 E9.81345
G0 F6000 X113.081 Y132.669
G1 F1200 X112.153 Y132.778 E9.84453
G1 X111.119 Y132.851 E9.87901
G1 X110.549 Y132.877 E9.89799
G1 X109.886 Y132.88 E9.92004
G1 X108.88 Y132.851 E9.95351
G1 X108.321 Y132.822 E9.97213
G1 X107.606 Y132.753 E9.99602
G1 X106.361 Y132.588 E10.03779
G1 X105.413 Y132.416 E10.06984
G1 X104.288 Y132.157 E10.10823
G1 X103.353 Y131.894 E10.14054
G1 X102.293 Y131.541 E10.1777
G1 X101.747 Y131.345 E10.19699
G1 X101.094 Y131.074 E10.22051
G1 X99.96 Y130.558 E10.26195
G1 X99.12 Y130.128 E10.29333
G1 X97.945 Y129.45 E10.33845
G1 X97.604 Y129.24 E10.35177
G1 X97.079 Y128.894 E10.37268
G1 X96.522 Y128.494 E10.39549
G1 X95.933 Y128.048 E10.42007
G1 X95.396 Y127.612 E10.44307
G1 X94.643 Y126.957 E10.47627
G1 X94.182 Y126.535 E10.49705
G1 X93.752 Y126.106 E10.51726
G1 X93.046 Y125.36 E10.55142
G1 X92.659 Y124.931 E10.57063
G1 X92.251 Y124.438 E10.59192
G1 X91.621 Y123.625 E10.62613
G1 X91.161 Y122.997 E10.65202
G1 X90.774 Y122.418 E10.67518
G1 X90.471 Y121.93 E10.69429
G1 X90.067 Y121.24 E10.72088
G1 X89.772 Y120.691 E10.74161
G1 X89.327 Y119.799 E10.77476
G1 X89.05 Y119.205 E10.79656
G1 X88.819 Y118.649 E10.81659
G1 X88.459 Y117.706 E10.85016
G1 X88.253 Y117.121 E10.87079
G1 X88.073 Y116.533 E10.89124
G1 X87.809 Y115.567 E10.92455
G1 X87.663 Y114.972 E10.94493
G1 X87.531 Y114.305 E10.96754
G1 X87.33 Y113.076 E11.00896
G1 X87.221 Y112.142 E11.04024
G1 X87.149 Y111.113 E11.07454
G1 X87.123 Y110.552 E11.09322
G1 X87.12 Y109.887 E11.11534
G1 X87.149 Y108.88 E11.14885
G1 X87.178 Y108.321 E11.16747
G1 X87.247 Y107.606 E11.19136
G1 X87.412 Y106.361 E11.23313
G1 X87.584 Y105.413 E11.26517
G1 X87.843 Y104.288 E11.30357
G1 X88.106 Y103.353 E11.33588
G1 X88.459 Y102.293 E11.37303
G1 X88.65 Y101.76 E11.39187
G1 X88.925 Y101.096 E11.41577
G1 X89.441 Y99.962 E11.45721
G1 X89.87 Y99.123 E11.48855
G1 X90.38 Y98.231 E11.52272
G1 X90.76 Y97.604 E11.54711
G1 X91.121 Y97.059 E11.56885
G1 X91.549 Y96.463 E11.59326
G1 X91.959 Y95.923 E11.61581
G1 X92.388 Y95.396 E11.63841
G1 X93.044 Y94.642 E11.67165
G1 X93.465 Y94.182 E11.69239
G1 X93.894 Y93.752 E11.71259
G1 X94.64 Y93.046 E11.74675
G1 X95.069 Y92.659 E11.76597
G1 X95.562 Y92.251 E11.78726
G1 X96.375 Y91.621 E11.82146
G1 X97.007 Y91.159 E11.8475
G1 X97.449 Y90.859 E11.86527
G1 X98.046 Y90.485 E11.8887
G1 X98.692 Y90.106 E11.91361
G1 X99.295 Y89.779 E11.93643
G1 X100.196 Y89.329 E11.96992
G1 X100.798 Y89.049 E11.99201
G1 X101.343 Y88.822 E12.01164
G1 X102.29 Y88.46 E12.04536
G1 X102.849 Y88.263 E12.06508
G1 X103.45 Y88.078 E12.08599
G1 X104.429 Y87.81 E12.11975
G1 X104.991 Y87.671 E12.13901
G1 X105.684 Y87.533 E12.16251
G1 X106.919 Y87.331 E12.20413
G1 X107.847 Y87.222 E12.23521
G1 X108.881 Y87.149 E12.26968
G1 X109.451 Y87.123 E12.28866
G1 X110.114 Y87.12 E12.31071
G1 X111.12 Y87.149 E12.34419
G1 X111.679 Y87.178 E12.3628
G1 X112.394 Y87.247 E12.3867
G1 X113.639 Y87.412 E12.42847
G1 X114.587 Y87.584 E12.46051
G1 X115.712 Y87.843 E12.49891
G1 X116.647 Y88.106 E12.53121
G1 X117.707 Y88.459 E12.56837
G1 X118.253 Y88.655 E12.58767
G1 X118.906 Y88.926 E12.61118
G1 X120.038 Y89.441 E12.65255
G1 X120.877 Y89.87 E12.68389
G1 X121.769 Y90.38 E12.71806
G1 X122.396 Y90.76 E12.74245
G1 X122.926 Y91.109 E12.76355
G1 X123.49 Y91.515 E12.78667
G1 X124.067 Y91.952 E12.81074
G1 X124.604 Y92.388 E12.83375
G1 X125.358 Y93.044 E12.86699
G1 X125.818 Y93.465 E12.88773
G1 X126.248 Y93.894 E12.90793
G1 X126.954 Y94.64 E12.94209
G1 X127.341 Y95.069 E12.96131
G1 X127.749 Y95.562 E12.98259
G1 X128.379 Y96.375 E13.0168
G1 X128.841 Y97.007 E13.04284
G1 X129.141 Y97.449 E13.06061
G1 X129.512 Y98.04 E13.08382
G1 X129.888 Y98.68 E13.10851
G1 X130.218 Y99.289 E13.13154
G1 X130.671 Y100.196 E13.16526
G1 X130.951 Y100.798 E13.18735
G1 X131.178 Y101.343 E13.20698
G1 X131.54 Y102.29 E13.2407
G1 X131.737 Y102.849 E13.26042
G1 X131.922 Y103.45 E13.28133
G1 X132.19 Y104.429 E13.31509
G1 X132.329 Y104.991 E13.33435
G1 X132.467 Y105.681 E13.35775
G1 X132.669 Y106.914 E13.39931
G1 X132.778 Y107.846 E13.43052
G1 X132.851 Y108.882 E13.46506
G1 X132.877 Y109.448 E13.4839
G1 X132.88 Y110.113 E13.50602
G1 X132.851 Y111.12 E13.53953
G1 X132.822 Y111.679 E13.55815
G1 X132.753 Y112.394 E13.58204
G1 X132.588 Y113.639 E13.62381
G1 X132.416 Y114.585 E13.65579
G1 X132.186 Y115.585 E13.68992
G1 X132.046 Y116.134 E13.70876
G1 X131.87 Y116.723 E13.72921
G1 X131.541 Y117.71 E13.76381
G1 X131.35 Y118.24 E13.78255
G1 X131.075 Y118.904 E13.80645
G1 X130.559 Y120.038 E13.84789
G1 X130.13 Y120.877 E13.87923
G1 X129.62 Y121.769 E13.91341
G1 X129.24 Y122.396 E13.93779
G1 X128.879 Y122.941 E13.95954
G1 X128.451 Y123.537 E13.98394
