; G-Code flavour: Marlin
; ID: 676d9869ec016e60a0cb87af
; Print time: 1:56:46
; Filament used: 6.13 meter(s)
; Estimated weight: 18 gram(s)
; Generated with: REALvisionCore 27.1.9
; Printer name: Creality Ender 3 Pro
; Material Profile: CreaTECH_PLA 
; Layer height: 0.2
M140 S60
M104 S210 T0
G90
M82
G28
; Repositioning
; Preset : Recommended
G1 Z25 F1000.02
G1 X0 F4800
G1 Y0
M190 S60
M109 S210 T0
G28 ; home all axes
G1 X5 Y10 Z0.2 F3000 ; get ready to prime
G92 E0 ; reset extrusion distance
G1 X160 E15 F600 ; prime nozzle
G1 X180 F5000 ; quick wipe
T0
; Print start
   ; Repositioning
; Preset : Recommended
G1 X128.479 Y110.573 F4800
G1 Z0.03 F1000.02
            ; New Layer
; layer 0, Z = 0.239
; layer time : 00:02:44
M140 S60
; Repositioning
G1 Z0.239
; Contour
; Path width : 0.4
; Path height : 0.24
G1 X128.879 Y109.563 E0.0585 F1200
G1 X129.319 Y109.15 E0.0911
G1 X130.388 Y107.971 E0.1768
G1 X131.266 Y106.802 E0.2556
G1 X131.918 Y105.697 E0.3247
G1 X132.319 Y104.714 E0.3819
G1 X132.463 Y103.917 E0.4256
G1 X132.389 Y103.361 E0.4558
G1 X132.162 Y103.013 E0.4782
G1 X131.752 Y102.783 E0.5035
G1 X131.069 Y102.69 E0.5406
G1 X130.13 Y102.799 E0.5916
G1 X128.995 Y103.132 E0.6553
G1 X127.725 Y103.686 E0.7299
G1 X127.05 Y104.063 E0.7716
G1 X126.45 Y103.573 E0.8134
G1 X126.669 Y102.881 E0.8525
G1 X126.664 Y102.268 E0.8855
G1 X126.495 Y102.01 E0.9021
G1 X126.074 Y101.873 E0.926
G1 X125.208 Y101.957 E0.9729
G1 X123.973 Y102.358 E1.0428
G1 X123.392 Y102.637 E1.0776
G1 X120.857 Y99.549 E1.2929
G1 X117.997 Y97.202 E1.4922
G1 X118.835 Y95.456 E1.5966
G1 X119.237 Y94.221 E1.6665
G1 X119.319 Y93.355 E1.7134
G1 X119.181 Y92.934 E1.7373
G1 X118.923 Y92.764 E1.7539
G1 X118.312 Y92.76 E1.7869
G1 X117.302 Y93.078 E1.8439
G1 X116.556 Y93.466 E1.8892
G1 X116.382 Y92.422 E1.9462
G1 X116.692 Y91.869 E1.9804
G1 X117.245 Y90.601 E2.055
G1 X117.578 Y89.465 E2.1187
G1 X117.688 Y88.525 E2.1697
G1 X117.595 Y87.843 E2.2068
G1 X117.364 Y87.432 E2.2322
G1 X117.016 Y87.206 E2.2546
G1 X116.46 Y87.131 E2.2848
G1 X115.664 Y87.276 E2.3284
G1 X114.681 Y87.676 E2.3856
G1 X113.576 Y88.327 E2.4547
G1 X112.406 Y89.206 E2.5335
G1 X111.227 Y90.275 E2.6193
G1 X110.712 Y90.825 E2.6599
G1 X110.068 Y90.671 E2.6956
G1 X109.929 Y90.197 E2.7222
G1 X109.661 Y89.945 E2.742
G1 X109.197 Y89.885 E2.7672
G1 X108.39 Y90.123 E2.8126
G1 X107.316 Y90.739 E2.8793
G1 X106.066 Y91.718 E2.9649
G1 X104.712 Y93.018 E3.066
G1 X103.313 Y94.586 E3.1792
G1 X103.131 Y94.819 E3.1951
G1 X100.716 Y95.556 E3.3312
G1 X97.514 Y97.277 E3.527
G1 X94.745 Y99.549 E3.72
G1 X92.456 Y102.337 E3.9144
G1 X90.74 Y105.547 E4.1105
G1 X89.691 Y109.01 E4.3055
G1 X89.337 Y112.598 E4.4998
G1 X89.691 Y116.199 E4.6947
G1 X90.74 Y119.663 E4.8897
G1 X92.444 Y122.856 E5.0847
G1 X94.744 Y125.66 E5.2802
G1 X97.542 Y127.956 E5.4752
G1 X100.732 Y129.662 E5.6701
G1 X104.194 Y130.713 E5.865
G1 X107.795 Y131.068 E6.06
G1 X111.396 Y130.715 E6.2549
G1 X114.858 Y129.666 E6.4499
G1 X118.068 Y127.95 E6.646
G1 X120.857 Y125.661 E6.8404
G1 X123.152 Y122.866 E7.0353
G1 X124.849 Y119.691 E7.2292
G1 X125.566 Y117.344 E7.3615
G1 X127.129 Y115.95 E7.4743
G1 X128.429 Y114.595 E7.5755
G1 X129.409 Y113.345 E7.6611
G1 X130.024 Y112.272 E7.7277
G1 X130.262 Y111.465 E7.7731
G1 X130.202 Y111 E7.7983
G1 X129.951 Y110.732 E7.8181
G1 X129.334 Y110.552 E7.8528
G1 X128.479 Y110.573 E7.8988
G92 E0
; Repositioning
G1 X129.029 Y110.19 F1800
; Contour
G1 X129.193 Y109.776 E0.024 F1200
G1 X129.583 Y109.41 E0.0528
G1 X130.674 Y108.207 E0.1403
G1 X131.574 Y107.007 E0.2211
G1 X132.25 Y105.861 E0.2928
G1 X132.676 Y104.818 E0.3535
G1 X132.838 Y103.926 E0.4024
G1 X132.745 Y103.229 E0.4403
G1 X132.422 Y102.735 E0.4721
G1 X131.871 Y102.426 E0.5061
G1 X131.073 Y102.317 E0.5495
G1 X130.056 Y102.435 E0.6047
G1 X128.868 Y102.784 E0.6714
G1 X127.561 Y103.354 E0.7482
G1 X127.089 Y103.617 E0.7774
G1 X126.878 Y103.446 E0.792
G1 X127.04 Y102.936 E0.8208
G1 X127.033 Y102.156 E0.8628
G1 X126.733 Y101.699 E0.8923
G1 X126.116 Y101.498 E0.9273
G1 X125.132 Y101.592 E0.9805
G1 X123.835 Y102.014 E1.054
G1 X123.494 Y102.178 E1.0744
G1 X121.12 Y99.286 E1.276
G1 X118.456 Y97.1 E1.4617
G1 X119.179 Y95.594 E1.5517
G1 X119.601 Y94.297 E1.6252
G1 X119.695 Y93.313 E1.6784
G1 X119.493 Y92.696 E1.7134
G1 X119.035 Y92.395 E1.7429
G1 X118.256 Y92.39 E1.7849
G1 X117.16 Y92.735 E1.8469
G1 X116.837 Y92.903 E1.8665
G1 X116.768 Y92.49 E1.889
G1 X117.024 Y92.033 E1.9172
G1 X117.594 Y90.727 E1.994
G1 X117.942 Y89.539 E2.0607
G1 X118.06 Y88.521 E2.1159
G1 X117.952 Y87.724 E2.1593
G1 X117.643 Y87.171 E2.1934
G1 X117.148 Y86.85 E2.2252
G1 X116.451 Y86.757 E2.2631
G1 X115.56 Y86.919 E2.3118
G1 X114.516 Y87.343 E2.3726
G1 X113.37 Y88.019 E2.4442
G1 X112.171 Y88.921 E2.5251
G1 X110.967 Y90.011 E2.6126
G1 X110.589 Y90.415 E2.6424
G1 X110.363 Y90.361 E2.655
G1 X110.256 Y89.996 E2.6755
G1 X109.827 Y89.594 E2.7072
G1 X109.167 Y89.508 E2.743
G1 X108.244 Y89.781 E2.7949
G1 X107.109 Y90.431 E2.8654
G1 X105.823 Y91.439 E2.9534
G1 X104.445 Y92.761 E3.0563
G1 X103.029 Y94.349 E3.171
G1 X102.912 Y94.499 E3.1812
G1 X100.573 Y95.213 E3.313
G1 X97.307 Y96.968 E3.5127
G1 X94.482 Y99.286 E3.7096
G1 X92.147 Y102.131 E3.9079
G1 X90.396 Y105.405 E4.108
G1 X89.326 Y108.938 E4.3069
G1 X88.966 Y112.598 E4.5051
G1 X89.326 Y116.272 E4.7039
G1 X90.396 Y119.805 E4.9029
G1 X92.135 Y123.062 E5.1018
G1 X94.481 Y125.923 E5.3012
G1 X97.335 Y128.265 E5.5001
G1 X100.59 Y130.005 E5.699
G1 X104.121 Y131.078 E5.8978
G1 X107.795 Y131.44 E6.0967
G1 X111.468 Y131.08 E6.2956
G1 X115.001 Y130.009 E6.4945
G1 X118.275 Y128.259 E6.6945
G1 X121.12 Y125.924 E6.8928
G1 X123.461 Y123.072 E7.0916
G1 X125.192 Y119.834 E7.2895
G1 X125.889 Y117.551 E7.4181
G1 X127.386 Y116.216 E7.5262
G1 X128.709 Y114.838 E7.6291
G1 X129.717 Y113.552 E7.7171
G1 X130.367 Y112.418 E7.7875
G1 X130.639 Y111.495 E7.8394
G1 X130.554 Y110.834 E7.8753
G1 X130.152 Y110.405 E7.907
G1 X129.382 Y110.181 E7.9502
G1 X129.029 Y110.19 E7.9692
G92 E0
; Repositioning
G1 X128.194 Y110.555 F1800
; Infill
G1 X108.19 Y90.551 E1.5266 F1200
G1 X108.562 Y90.356 E1.5493
G1 X128.355 Y110.149 E3.0598
G1 X128.515 Y109.743 E3.0834
G1 X108.999 Y90.227 E4.5728
G1 X109.639 Y90.3 E4.6075
G92 E0
; Repositioning
G1 X110.359 Y91.021 F1800
; Infill
G1 X128.698 Y109.36 E1.3996 F1200
G1 X128.991 Y109.086 E1.4212
G1 X110.913 Y91.008 E2.8008
G1 X111.187 Y90.716 E2.8225
G1 X117.688 Y97.216 E3.3186
G1 X117.872 Y96.833 E3.3415
G1 X111.465 Y90.427 E3.8304
G1 X111.762 Y90.157 E3.8521
G1 X118.055 Y96.451 E4.3324
G1 X118.239 Y96.068 E4.3553
G1 X112.059 Y89.888 E4.8269
G1 X112.357 Y89.619 E4.8485
G1 X116.295 Y93.557 E5.1491
G1 X116.182 Y92.877 E5.1863
G1 X112.66 Y89.356 E5.4551
G1 X112.984 Y89.113 E5.4769
G1 X116.15 Y92.279 E5.7186
G1 X116.354 Y91.916 E5.741
G1 X113.307 Y88.87 E5.9735
G1 X113.631 Y88.627 E5.9953
G1 X116.54 Y91.536 E6.2174
G1 X116.712 Y91.142 E6.2406
G1 X113.977 Y88.406 E6.4494
G1 X114.333 Y88.196 E6.4717
G1 X116.884 Y90.747 E6.6664
G1 X117.039 Y90.336 E6.6901
G1 X114.69 Y87.986 E6.8694
G1 X115.078 Y87.808 E6.8925
G1 X117.168 Y89.898 E7.052
G1 X117.296 Y89.46 E7.0766
G1 X115.481 Y87.644 E7.2152
G1 X115.911 Y87.507 E7.2395
G1 X117.363 Y88.96 E7.3504
G1 X117.4 Y88.43 E7.379
G1 X116.39 Y87.42 E7.4561
G1 X117.16 Y87.623 E7.499
G92 E0
; Repositioning
G1 X116.946 Y87.707 F1800
G1 X115.777 Y92.535
G1 X115.883 Y92.556
G1 X118.605 Y93.034
; Infill
G1 X119.036 Y93.465 E0.0329 F1200
G1 X118.986 Y93.982 E0.0609
G1 X118.112 Y93.108 E0.1276
G1 X117.681 Y93.244 E0.152
G1 X118.879 Y94.441 E0.2434
G1 X118.74 Y94.869 E0.2676
G1 X117.271 Y93.4 E0.3797
G1 X116.898 Y93.594 E0.4024
G1 X118.601 Y95.296 E0.5323
G1 X118.423 Y95.685 E0.5553
G1 X116.526 Y93.788 E0.7002
G92 E0
; Repositioning
G1 X117.509 Y97.148 F1800
G1 X118.156 Y97.684
; Infill
G1 X122.727 Y102.255 E0.3488 F1200
G92 E0
; Repositioning
G1 X123.404 Y102.933 F1800
; Infill
G1 X129.271 Y108.799 E0.4477 F1200
G1 X129.54 Y108.502 E0.4693
G1 X123.787 Y102.749 E0.9084
G1 X124.181 Y102.576 E0.9316
G1 X129.809 Y108.205 E1.3611
G1 X130.079 Y107.907 E1.3828
G1 X124.609 Y102.437 E1.8002
G1 X125.036 Y102.299 E1.8245
G1 X126.2 Y103.462 E1.9133
G1 X126.336 Y103.032 E1.9376
G1 X125.506 Y102.201 E2.001
G1 X126.023 Y102.152 E2.029
G1 X126.394 Y102.523 E2.0574
G92 E0
; Repositioning
G1 X126.042 Y103.043 F1800
G1 X125.912 Y103.44
G1 X127.09 Y104.352
; Infill
G1 X130.331 Y107.594 E0.2474 F1200
G1 X130.574 Y107.27 E0.2692
G1 X127.453 Y104.149 E0.5074
G1 X127.817 Y103.946 E0.5299
G1 X130.817 Y106.946 E0.7588
G1 X131.058 Y106.62 E0.7807
G1 X128.209 Y103.772 E0.9981
G1 X128.604 Y103.6 E1.0213
G1 X131.268 Y106.264 E1.2246
G1 X131.478 Y105.907 E1.2469
G1 X128.998 Y103.428 E1.4362
G1 X129.426 Y103.289 E1.4605
G1 X131.685 Y105.548 E1.6328
G1 X131.849 Y105.145 E1.6563
G1 X129.864 Y103.161 E1.8078
G1 X130.321 Y103.051 E1.8331
G1 X132.013 Y104.743 E1.9623
G1 X132.12 Y104.283 E1.9877
G1 X130.829 Y102.992 E2.0863
G1 X131.415 Y103.011 E2.1179
G1 X132.169 Y103.765 E2.1755
G92 E0
; Repositioning
G1 X131.851 Y103.769 F1800
G1 X128.21 Y110.058
G1 X129.951 Y111.179
; Infill
G1 X129.909 Y111.703 E0.0284 F1200
G1 X129.037 Y110.832 E0.0949
G1 X128.484 Y110.845 E0.1247
G1 X129.779 Y112.141 E0.2236
G1 X129.577 Y112.505 E0.2461
G1 X107.83 Y90.758 E1.9057
G1 X107.47 Y90.964 E1.9281
G1 X129.371 Y112.865 E3.5996
G1 X129.161 Y113.221 E3.6219
G1 X107.152 Y91.213 E5.3015
G1 X106.834 Y91.462 E5.3233
G1 X128.912 Y113.539 E7.0082
G1 X128.663 Y113.857 E7.0299
G1 X106.517 Y91.711 E8.72
G1 X106.203 Y91.964 E8.7418
G1 X128.414 Y114.174 E10.4368
G1 X128.158 Y114.485 E10.4585
G1 X105.914 Y92.241 E12.1561
G1 X105.625 Y92.519 E12.1777
G1 X127.881 Y114.774 E13.8762
G1 X127.603 Y115.063 E13.8978
G1 X105.336 Y92.796 E15.5972
G1 X105.047 Y93.074 E15.6188
G1 X127.326 Y115.352 E17.319
G1 X127.048 Y115.641 E17.3407
G1 X104.769 Y93.362 E19.0409
G1 X104.502 Y93.662 E19.0626
G1 X126.757 Y115.917 E20.761
G1 X126.458 Y116.184 E20.7827
G1 X104.235 Y93.961 E22.4787
G1 X103.968 Y94.261 E22.5003
G1 X126.158 Y116.451 E24.1939
G1 X125.859 Y116.718 E24.2155
G1 X103.701 Y94.56 E25.9066
G1 X103.44 Y94.866 E25.9283
G1 X125.559 Y116.985 E27.6164
G1 X125.298 Y117.29 E27.638
G1 X103.115 Y95.108 E29.3309
G1 X102.681 Y95.24 E29.3554
G1 X125.165 Y117.724 E31.0714
G1 X125.033 Y118.158 E31.0958
G1 X102.247 Y95.373 E32.8348
G1 X101.813 Y95.505 E32.8593
G1 X124.9 Y118.592 E34.6212
G1 X124.768 Y119.027 E34.6457
G1 X101.379 Y95.638 E36.4306
G1 X100.945 Y95.771 E36.4551
G1 X124.635 Y119.461 E38.2631
G1 X124.457 Y119.849 E38.2861
G1 X100.558 Y95.95 E40.11
G1 X100.189 Y96.148 E40.1326
G1 X124.259 Y120.218 E41.9695
G1 X124.062 Y120.587 E41.9921
G1 X99.821 Y96.346 E43.8421
G1 X99.452 Y96.544 E43.8647
G1 X123.864 Y120.956 E45.7278
G1 X123.667 Y121.325 E45.7504
G1 X99.084 Y96.742 E47.6265
G1 X98.715 Y96.94 E47.6491
G1 X123.47 Y121.694 E49.5382
G1 X123.272 Y122.064 E49.5608
G1 X98.347 Y97.138 E51.4631
G1 X97.978 Y97.336 E51.4857
G1 X123.075 Y122.433 E53.401
G1 X122.864 Y122.788 E53.4233
G1 X97.618 Y97.543 E55.3499
G1 X97.307 Y97.798 E55.3717
G1 X122.608 Y123.099 E57.3026
G1 X122.353 Y123.41 E57.3243
G1 X96.996 Y98.053 E59.2594
G1 X96.685 Y98.309 E59.2812
G1 X122.097 Y123.721 E61.2206
G1 X121.842 Y124.033 E61.2423
G1 X96.374 Y98.564 E63.186
G1 X96.062 Y98.82 E63.2077
G1 X121.587 Y124.344 E65.1557
G1 X121.331 Y124.655 E65.1774
G1 X95.751 Y99.075 E67.1296
G1 X95.44 Y99.33 E67.1513
G1 X121.076 Y124.966 E69.1078
G1 X120.82 Y125.277 E69.1295
G1 X95.129 Y99.586 E71.0902
G1 X94.839 Y99.863 E71.1118
G1 X120.543 Y125.567 E73.0735
G1 X120.232 Y125.822 E73.0953
G1 X94.584 Y100.174 E75.0527
G1 X94.328 Y100.485 E75.0744
G1 X119.921 Y126.078 E77.0276
G1 X119.61 Y126.333 E77.0493
G1 X94.073 Y100.796 E78.9982
G1 X93.818 Y101.107 E79.0199
G1 X119.299 Y126.588 E80.9646
G1 X118.987 Y126.844 E80.9863
G1 X93.562 Y101.418 E82.9267
G1 X93.307 Y101.729 E82.9484
G1 X118.676 Y127.099 E84.8845
G1 X118.365 Y127.354 E84.9062
G1 X93.051 Y102.041 E86.8381
G1 X92.796 Y102.352 E86.8598
G1 X118.054 Y127.61 E88.7874
G1 X117.71 Y127.833 E88.8095
G1 X92.573 Y102.695 E90.7279
G1 X92.376 Y103.064 E90.7505
G1 X117.341 Y128.03 E92.6558
G1 X116.972 Y128.227 E92.6784
G1 X92.178 Y103.434 E94.5706
G1 X91.981 Y103.803 E94.5932
G1 X116.603 Y128.425 E96.4723
G1 X116.234 Y128.622 E96.4949
G1 X91.783 Y104.172 E98.3608
G1 X91.586 Y104.541 E98.3834
G1 X115.864 Y128.82 E100.2363
G1 X115.495 Y129.017 E100.2589
G1 X91.389 Y104.91 E102.0986
G1 X91.191 Y105.279 E102.1212
G1 X115.126 Y129.214 E103.9478
G1 X114.757 Y129.412 E103.9704
G1 X90.994 Y105.649 E105.784
G1 X90.862 Y106.083 E105.8085
G1 X114.323 Y129.544 E107.5989
G1 X113.888 Y129.676 E107.6235
G1 X90.73 Y106.518 E109.3908
G1 X90.598 Y106.953 E109.4153
G1 X113.453 Y129.808 E111.1596
G1 X113.018 Y129.939 E111.1841
G1 X90.466 Y107.388 E112.9052
G1 X90.335 Y107.822 E112.9297
G1 X112.584 Y130.071 E114.6276
G1 X112.149 Y130.203 E114.6522
G1 X90.203 Y108.257 E116.327
G1 X90.071 Y108.692 E116.3515
G1 X111.714 Y130.335 E118.0032
G1 X111.267 Y130.455 E118.0282
G1 X89.952 Y109.139 E119.6549
G1 X89.901 Y109.655 E119.6829
G1 X110.751 Y130.505 E121.2742
G1 X110.235 Y130.556 E121.3021
G1 X89.85 Y110.17 E122.8579
G1 X89.799 Y110.686 E122.8859
G1 X109.719 Y130.606 E124.4061
G1 X109.203 Y130.657 E124.4341
G1 X89.748 Y111.202 E125.9189
G1 X89.697 Y111.718 E125.9468
G1 X108.687 Y130.707 E127.3961
G1 X108.171 Y130.758 E127.4241
G1 X89.647 Y112.233 E128.8378
G1 X89.629 Y112.782 E128.8674
G1 X107.625 Y130.778 E130.2408
G1 X106.996 Y130.716 E130.2749
G1 X89.69 Y113.41 E131.5957
G1 X89.752 Y114.038 E131.6297
G1 X106.368 Y130.654 E132.8978
G1 X105.739 Y130.592 E132.9319
G1 X89.814 Y114.667 E134.1473
G1 X89.876 Y115.295 E134.1813
G1 X105.111 Y130.53 E135.3441
G1 X104.482 Y130.468 E135.3781
G1 X89.937 Y115.923 E136.4882
G1 X90.118 Y116.67 E136.5297
G1 X103.738 Y130.291 E137.5691
G1 X102.924 Y130.043 E137.615
G1 X90.364 Y117.483 E138.5736
G1 X90.61 Y118.295 E138.6194
G1 X102.111 Y129.796 E139.4971
G1 X101.297 Y129.549 E139.543
G1 X90.856 Y119.108 E140.3398
G1 X91.281 Y120.1 E140.3981
G1 X100.308 Y129.126 E141.0869
G1 X99.09 Y128.475 E141.1614
G1 X91.93 Y121.316 E141.7079
G1 X92.579 Y122.531 E141.7822
G1 X97.873 Y127.825 E142.1862
G1 X94.943 Y125.462 E142.3893
G1 E138.3893 F2400
G92 E0
              ; New Layer
; layer 1, Z = 0.439
; layer time : 00:01:27
; Repositioning
M106 P0 S0
G0 Z0.439 F1000.02
; Repositioning with retraction
G1 X128.479 Y110.573 F4800
G1 E4 F2400
G92 E0
; Contour
; Path height : 0.2
G1 X128.879 Y109.563 E0.0325 F2400
G1 X129.319 Y109.15 E0.0506
G1 X130.388 Y107.971 E0.0982
G1 X131.266 Y106.802 E0.142
G1 X131.918 Y105.697 E0.1804
G1 X132.319 Y104.714 E0.2122
G1 X132.463 Y103.917 E0.2364
G1 X132.389 Y103.361 E0.2532
G1 X132.162 Y103.013 E0.2656
G1 X131.752 Y102.783 E0.2797
G1 X131.069 Y102.69 E0.3003
G1 X130.13 Y102.799 E0.3287
G1 X128.995 Y103.132 E0.3641
G1 X127.725 Y103.686 E0.4055
G1 X127.05 Y104.063 E0.4287
G1 X126.45 Y103.573 E0.4519
G1 X126.669 Y102.881 E0.4736
G1 X126.664 Y102.268 E0.492
G1 X126.495 Y102.01 E0.5012
G1 X126.074 Y101.873 E0.5144
G1 X125.208 Y101.957 E0.5405
G1 X123.973 Y102.358 E0.5794
G1 X123.392 Y102.637 E0.5987
G1 X120.857 Y99.549 E0.7183
G1 X117.997 Y97.202 E0.829
G1 X118.835 Y95.456 E0.887
G1 X119.237 Y94.221 E0.9259
G1 X119.319 Y93.355 E0.9519
G1 X119.181 Y92.934 E0.9652
G1 X118.923 Y92.764 E0.9744
G1 X118.312 Y92.76 E0.9927
G1 X117.302 Y93.078 E1.0244
G1 X116.556 Y93.466 E1.0496
G1 X116.382 Y92.422 E1.0812
G1 X116.692 Y91.869 E1.1002
G1 X117.245 Y90.601 E1.1416
G1 X117.578 Y89.465 E1.1771
G1 X117.688 Y88.525 E1.2054
G1 X117.595 Y87.843 E1.226
G1 X117.364 Y87.432 E1.2401
G1 X117.016 Y87.206 E1.2525
G1 X116.46 Y87.131 E1.2693
G1 X115.664 Y87.276 E1.2935
G1 X114.681 Y87.676 E1.3253
G1 X113.576 Y88.327 E1.3637
G1 X112.406 Y89.206 E1.4075
G1 X111.227 Y90.275 E1.4552
G1 X110.712 Y90.825 E1.4777
G1 X110.068 Y90.671 E1.4975
G1 X109.929 Y90.197 E1.5123
G1 X109.661 Y89.945 E1.5233
G1 X109.197 Y89.885 E1.5374
G1 X108.39 Y90.123 E1.5625
G1 X107.316 Y90.739 E1.5996
G1 X106.066 Y91.718 E1.6471
G1 X104.712 Y93.018 E1.7033
G1 X103.313 Y94.586 E1.7662
G1 X103.131 Y94.819 E1.7751
G1 X100.735 Y95.546 E1.85
G1 X97.538 Y97.257 E1.9586
G1 X94.745 Y99.549 E2.0667
G1 X92.462 Y102.33 E2.1744
G1 X90.737 Y105.554 E2.2839
G1 X89.69 Y109.016 E2.3922
G1 X89.338 Y112.593 E2.4997
G1 X89.69 Y116.193 E2.608
G1 X90.738 Y119.656 E2.7163
G1 X92.441 Y122.849 E2.8246
G1 X94.743 Y125.659 E2.9334
G1 X97.541 Y127.955 E3.0417
G1 X100.73 Y129.66 E3.15
G1 X104.19 Y130.712 E3.2582
G1 X107.789 Y131.068 E3.3665
G1 X111.389 Y130.716 E3.4748
G1 X114.851 Y129.668 E3.583
G1 X118.076 Y127.943 E3.6925
G1 X120.857 Y125.661 E3.8002
G1 X123.15 Y122.868 E3.9084
G1 X124.86 Y119.671 E4.0169
G1 X125.565 Y117.344 E4.0897
G1 X127.129 Y115.95 E4.1524
G1 X128.429 Y114.595 E4.2086
G1 X129.409 Y113.345 E4.2562
G1 X130.024 Y112.272 E4.2932
G1 X130.262 Y111.465 E4.3184
G1 X130.202 Y111 E4.3324
G1 X129.951 Y110.732 E4.3434
G1 X129.334 Y110.552 E4.3626
G1 X128.479 Y110.573 E4.3882
G92 E0
; Repositioning
G1 X129.029 Y110.19 F4800
; Contour
G1 X129.193 Y109.776 E0.0133 F1200
G1 X129.583 Y109.41 E0.0293
G1 X130.674 Y108.207 E0.0779
G1 X131.574 Y107.007 E0.1229
G1 X132.25 Y105.861 E0.1627
G1 X132.676 Y104.818 E0.1964
G1 X132.838 Y103.926 E0.2236
G1 X132.745 Y103.229 E0.2446
G1 X132.422 Y102.735 E0.2623
G1 X131.871 Y102.426 E0.2812
G1 X131.073 Y102.317 E0.3053
G1 X130.056 Y102.435 E0.3359
G1 X128.868 Y102.784 E0.373
G1 X127.561 Y103.354 E0.4157
G1 X127.089 Y103.617 E0.4319
G1 X126.878 Y103.446 E0.44
G1 X127.04 Y102.936 E0.456
G1 X127.033 Y102.156 E0.4794
G1 X126.733 Y101.699 E0.4957
G1 X126.116 Y101.498 E0.5152
G1 X125.132 Y101.592 E0.5447
G1 X123.835 Y102.014 E0.5856
G1 X123.494 Y102.178 E0.5969
G1 X121.12 Y99.286 E0.7089
G1 X118.456 Y97.1 E0.8121
G1 X119.179 Y95.594 E0.8621
G1 X119.601 Y94.297 E0.9029
G1 X119.695 Y93.313 E0.9325
G1 X119.493 Y92.696 E0.9519
G1 X119.035 Y92.395 E0.9683
G1 X118.256 Y92.39 E0.9916
G1 X117.16 Y92.735 E1.026
G1 X116.837 Y92.903 E1.0369
G1 X116.768 Y92.49 E1.0494
G1 X117.024 Y92.033 E1.0651
G1 X117.594 Y90.727 E1.1078
G1 X117.942 Y89.539 E1.1448
G1 X118.06 Y88.521 E1.1755
G1 X117.952 Y87.724 E1.1996
G1 X117.643 Y87.171 E1.2185
G1 X117.148 Y86.85 E1.2362
G1 X116.451 Y86.757 E1.2573
G1 X115.56 Y86.919 E1.2844
G1 X114.516 Y87.343 E1.3181
G1 X113.37 Y88.019 E1.3579
G1 X112.171 Y88.921 E1.4028
G1 X110.967 Y90.011 E1.4514
G1 X110.589 Y90.415 E1.468
G1 X110.363 Y90.361 E1.475
G1 X110.256 Y89.996 E1.4864
G1 X109.827 Y89.594 E1.504
G1 X109.167 Y89.508 E1.5239
G1 X108.244 Y89.781 E1.5527
G1 X107.109 Y90.431 E1.5919
G1 X105.823 Y91.439 E1.6408
G1 X104.445 Y92.761 E1.698
G1 X103.029 Y94.349 E1.7616
G1 X102.911 Y94.499 E1.7673
G1 X100.593 Y95.202 E1.8399
G1 X97.332 Y96.948 E1.9506
G1 X94.482 Y99.286 E2.0609
G1 X92.153 Y102.123 E2.1708
G1 X90.394 Y105.412 E2.2825
G1 X89.326 Y108.944 E2.3929
G1 X88.966 Y112.593 E2.5027
G1 X89.326 Y116.265 E2.6131
G1 X90.394 Y119.798 E2.7236
G1 X92.131 Y123.055 E2.8341
G1 X94.48 Y125.922 E2.9451
G1 X97.334 Y128.264 E3.0556
G1 X100.587 Y130.004 E3.166
G1 X104.117 Y131.077 E3.2764
G1 X107.789 Y131.439 E3.3869
G1 X111.461 Y131.081 E3.4973
G1 X114.993 Y130.012 E3.6078
G1 X118.283 Y128.252 E3.7195
G1 X121.12 Y125.924 E3.8293
G1 X123.459 Y123.074 E3.9397
G1 X125.203 Y119.814 E4.0504
G1 X125.889 Y117.551 E4.1212
G1 X127.386 Y116.216 E4.1812
G1 X128.709 Y114.838 E4.2384
G1 X129.717 Y113.552 E4.2873
G1 X130.367 Y112.418 E4.3264
G1 X130.639 Y111.495 E4.3552
G1 X130.554 Y110.834 E4.3752
G1 X130.152 Y110.405 E4.3928
G1 X129.382 Y110.181 E4.4168
G1 X129.029 Y110.19 E4.4273
G1 E0.4273 F2400
G92 E0
; Repositioning with retraction
G1 X124.867 Y117.737 F4800
G1 X120.664 Y125.468
G1 E4 F2400
G92 E0
; Infill
G1 X117.753 Y127.808 E0.113 F2400
G1 X123.013 Y122.547 E0.338
G1 X123.67 Y121.318 E0.3801
G1 X116.524 Y128.465 E0.6858
G1 X115.295 Y129.122 E0.7279
G1 X124.328 Y120.09 E1.1143
G1 X124.75 Y119.095 E1.1469
G1 X114.293 Y129.553 E1.5942
G1 X113.473 Y129.801 E1.6201
G1 X124.999 Y118.275 E2.1131
G1 X125.248 Y117.455 E2.1391
G1 X112.653 Y130.049 E2.6778
G1 X111.834 Y130.297 E2.7037
G1 X129.512 Y112.619 E3.4598
G1 X129.93 Y111.629 E3.4923
G1 X111.087 Y130.472 E4.2983
G1 X110.454 Y130.534 E4.3176
G1 X129.906 Y111.082 E5.1496
G1 X129.525 Y110.891 E5.1625
G1 X109.82 Y130.596 E6.0053
G1 X109.187 Y130.658 E6.0246
G1 X129.012 Y110.832 E6.8725
G1 X128.426 Y110.847 E6.8903
G1 X108.554 Y130.72 E7.7403
G1 X107.92 Y130.782 E7.7595
G1 X128.225 Y110.477 E8.6281
G1 X128.599 Y109.531 E8.6588
G1 X107.377 Y130.753 E9.5666
G1 X106.856 Y130.702 E9.5824
G1 X131.229 Y106.33 E10.6249
G1 X131.854 Y105.133 E10.6657
G1 X106.336 Y130.651 E11.7572
G1 X105.816 Y130.599 E11.773
G1 X132.118 Y104.298 E12.898
G1 X132.158 Y103.686 E12.9166
G1 X105.296 Y130.548 E14.0655
G1 X104.776 Y130.497 E14.0813
G1 X132.004 Y103.268 E15.246
G1 X131.656 Y103.044 E15.2585
G1 X104.255 Y130.445 E16.4305
G1 X103.815 Y130.314 E16.4444
G1 X131.153 Y102.976 E17.6137
G1 X130.531 Y103.026 E17.6326
G1 X103.377 Y130.181 E18.7941
G1 X102.939 Y130.047 E18.8079
G1 X129.809 Y103.177 E19.9573
G1 X128.978 Y103.436 E19.9836
G1 X102.5 Y129.914 E21.1161
G1 X102.062 Y129.781 E21.13
G1 X127.965 Y103.878 E22.2379
G1 X126.944 Y104.328 E22.2717
G1 X101.624 Y129.648 E23.3547
G1 X101.185 Y129.515 E23.3686
G1 X126.629 Y104.071 E24.4569
G1 X126.314 Y103.814 E24.4692
G1 X100.76 Y129.368 E25.5622
G1 X100.388 Y129.169 E25.575
G1 X126.248 Y103.308 E26.6811
G1 X126.395 Y102.59 E26.7033
G1 X100.015 Y128.97 E27.8316
G1 X99.643 Y128.771 E27.8444
G1 X126.21 Y102.204 E28.9807
G1 X125.655 Y102.187 E28.9975
G1 X99.27 Y128.572 E30.1261
G1 X98.898 Y128.372 E30.1389
G1 X124.941 Y102.33 E31.2528
G1 X124.094 Y102.605 E31.2797
G1 X98.525 Y128.173 E32.3734
G1 X98.153 Y127.974 E32.3861
G1 X123.243 Y102.884 E33.4593
G1 X122.985 Y102.57 E33.4716
G1 X97.781 Y127.775 E34.5497
G1 X97.453 Y127.531 E34.562
G1 X122.728 Y102.256 E35.6431
G1 X122.47 Y101.942 E35.6554
G1 X97.139 Y127.274 E36.7389
G1 X96.825 Y127.016 E36.7512
G1 X122.212 Y101.629 E37.8371
G1 X121.955 Y101.315 E37.8494
G1 X96.511 Y126.758 E38.9377
G1 X96.197 Y126.501 E38.95
G1 X121.697 Y101.001 E40.0407
G1 X121.439 Y100.687 E40.0529
G1 X95.883 Y126.243 E41.1461
G1 X95.569 Y125.985 E41.1583
G1 X121.182 Y100.373 E42.2539
G1 X120.924 Y100.059 E42.2661
G1 X95.255 Y125.728 E43.3641
G1 X94.941 Y125.47 E43.3764
G1 X120.667 Y99.745 E44.4767
G1 X120.353 Y99.487 E44.489
G1 X94.683 Y125.157 E45.587
G1 X94.426 Y124.843 E45.5992
G1 X120.039 Y99.229 E46.6948
G1 X119.725 Y98.972 E46.7071
G1 X94.168 Y124.529 E47.8002
G1 X93.911 Y124.214 E47.8125
G1 X119.411 Y98.714 E48.9032
G1 X119.097 Y98.457 E48.9155
G1 X93.654 Y123.9 E50.0038
G1 X93.396 Y123.586 E50.0161
G1 X118.783 Y98.199 E51.102
G1 X118.469 Y97.941 E51.1143
G1 X93.139 Y123.272 E52.1977
G1 X92.881 Y122.958 E52.21
G1 X118.155 Y97.684 E53.2911
G1 X117.841 Y97.426 E53.3033
G1 X92.634 Y122.634 E54.3815
G1 X92.435 Y122.261 E54.3943
G1 X117.88 Y96.816 E55.4827
G1 X118.408 Y95.717 E55.5196
G1 X92.236 Y121.888 E56.639
G1 X92.038 Y121.515 E56.6518
G1 X118.767 Y94.786 E57.7951
G1 X118.985 Y93.997 E57.8198
G1 X91.839 Y121.143 E58.9809
G1 X91.64 Y120.77 E58.9937
G1 X119.038 Y93.371 E60.1656
G1 X118.803 Y93.035 E60.1781
G1 X91.441 Y120.397 E61.3484
G1 X91.242 Y120.024 E61.3612
G1 X118.18 Y93.087 E62.5134
G1 X117.32 Y93.375 E62.5408
G1 X91.043 Y119.652 E63.6647
G1 X90.893 Y119.23 E63.6782
G1 X116.334 Y93.79 E64.7664
G1 X116.252 Y93.3 E64.7814
G1 X90.76 Y118.792 E65.8718
G1 X90.628 Y118.353 E65.8857
G1 X116.171 Y92.81 E66.9782
G1 X116.177 Y92.232 E66.9957
G1 X90.495 Y117.914 E68.0942
G1 X90.362 Y117.475 E68.108
G1 X116.725 Y91.112 E69.2357
G1 X117.085 Y90.181 E69.2659
G1 X90.23 Y117.036 E70.4145
G1 X90.097 Y116.597 E70.4284
G1 X117.314 Y89.38 E71.5926
G1 X117.39 Y88.733 E71.6123
G1 X89.964 Y116.158 E72.7853
G1 X89.91 Y115.641 E72.8011
G1 X117.367 Y88.184 E73.9755
G1 X117.23 Y87.749 E73.9893
G1 X89.859 Y115.121 E75.16
G1 X89.808 Y114.6 E75.1759
G1 X116.932 Y87.475 E76.3361
G1 X116.422 Y87.415 E76.3516
G1 X89.757 Y114.08 E77.4922
G1 X89.706 Y113.559 E77.508
G1 X115.717 Y87.548 E78.6205
G1 X114.732 Y87.961 E78.6528
G1 X89.655 Y113.038 E79.7255
G1 X89.62 Y112.501 E79.7418
G1 X113.085 Y89.037 E80.7454
G92 E0
; Repositioning
G1 X112.016 Y90.027 F4800
G1 X111.718 Y90.293
G1 X110.497 Y91.054
; Infill
G1 X89.683 Y111.867 E0.8903 F2400
G1 X89.745 Y111.233 E0.9095
G1 X110.035 Y90.943 E1.7774
G1 X109.773 Y90.634 E1.7897
G1 X89.808 Y110.599 E2.6437
G1 X89.87 Y109.965 E2.6629
G1 X109.587 Y90.248 E3.5063
G1 X109.052 Y90.212 E3.5225
G1 X89.933 Y109.331 E4.3403
G1 X90.104 Y108.588 E4.3634
G1 X108.075 Y90.618 E5.132
G1 X104.86 Y93.261 E5.2579
G92 E0
; Repositioning
G1 X104.075 Y94.229 F4800
G1 X103.993 Y94.327
G1 X102.968 Y95.153
; Infill
G1 X90.352 Y107.769 E0.5396 F2400
G1 X90.6 Y106.949 E0.5655
G1 X102.148 Y95.402 E1.0595
G1 X101.327 Y95.65 E1.0854
G1 X90.847 Y106.13 E1.5336
G1 X91.269 Y105.137 E1.5663
G1 X100.341 Y96.065 E1.9543
G1 X99.111 Y96.724 E1.9965
G1 X91.927 Y103.908 E2.3038
G1 X92.584 Y102.679 E2.3459
G1 X97.881 Y97.382 E2.5725
G1 X94.944 Y99.748 E2.6866
G1 E-1.3134
G92 E0
     ; New Layer
; layer 2, Z = 0.639
; layer time : 00:01:28
; Repositioning
M106 P0 S255
G0 Z0.639 F1000.02
; Repositioning with retraction
G1 X128.479 Y110.573 F4800
G1 E4 F2400
G92 E0
; Contour
G1 X128.879 Y109.563 E0.0325 F2400
G1 X129.319 Y109.15 E0.0506
G1 X130.388 Y107.971 E0.0982
G1 X131.266 Y106.802 E0.142
G1 X131.918 Y105.697 E0.1804
G1 X132.319 Y104.714 E0.2122
G1 X132.463 Y103.917 E0.2364
G1 X132.389 Y103.361 E0.2532
G1 X132.162 Y103.013 E0.2656
G1 X131.752 Y102.783 E0.2797
G1 X131.069 Y102.69 E0.3003
G1 X130.13 Y102.799 E0.3287
G1 X128.995 Y103.132 E0.3641
G1 X127.725 Y103.686 E0.4055
G1 X127.05 Y104.063 E0.4287
G1 X126.45 Y103.573 E0.4519
G1 X126.669 Y102.881 E0.4736
G1 X126.664 Y102.268 E0.492
G1 X126.495 Y102.01 E0.5012
G1 X126.074 Y101.873 E0.5144
G1 X125.208 Y101.957 E0.5405
G1 X123.973 Y102.358 E0.5794
G1 X123.392 Y102.637 E0.5987
G1 X120.857 Y99.549 E0.7183
G1 X117.997 Y97.202 E0.829
G1 X118.835 Y95.456 E0.887
G1 X119.237 Y94.221 E0.9259
G1 X119.319 Y93.355 E0.9519
G1 X119.181 Y92.934 E0.9652
G1 X118.923 Y92.764 E0.9744
G1 X118.312 Y92.76 E0.9927
G1 X117.302 Y93.078 E1.0244
G1 X116.556 Y93.466 E1.0496
G1 X116.382 Y92.422 E1.0812
G1 X116.692 Y91.869 E1.1002
G1 X117.245 Y90.601 E1.1416
G1 X117.578 Y89.465 E1.1771
G1 X117.688 Y88.525 E1.2054
G1 X117.595 Y87.843 E1.226
G1 X117.364 Y87.432 E1.2401
G1 X117.016 Y87.206 E1.2525
G1 X116.46 Y87.131 E1.2693
G1 X115.664 Y87.276 E1.2935
G1 X114.681 Y87.676 E1.3253
G1 X113.576 Y88.327 E1.3637
G1 X112.406 Y89.206 E1.4075
G1 X111.227 Y90.275 E1.4552
G1 X110.712 Y90.825 E1.4777
G1 X110.068 Y90.671 E1.4975
G1 X109.929 Y90.197 E1.5123
G1 X109.661 Y89.945 E1.5233
G1 X109.197 Y89.885 E1.5374
G1 X108.39 Y90.123 E1.5625
G1 X107.316 Y90.739 E1.5996
G1 X106.066 Y91.718 E1.6471
G1 X104.712 Y93.018 E1.7033
G1 X103.313 Y94.586 E1.7662
G1 X103.131 Y94.819 E1.7751
G1 X100.735 Y95.546 E1.85
G1 X97.536 Y97.259 E1.9586
G1 X94.745 Y99.549 E2.0667
G1 X92.469 Y102.322 E2.1741
G1 X90.735 Y105.562 E2.2841
G1 X89.69 Y109.023 E2.3923
G1 X89.338 Y112.587 E2.4995
G1 X89.69 Y116.186 E2.6078
G1 X90.735 Y119.649 E2.7161
G1 X92.437 Y122.843 E2.8244
G1 X94.742 Y125.658 E2.9333
G1 X97.54 Y127.954 E3.0416
G1 X100.727 Y129.659 E3.1499
G1 X104.186 Y130.711 E3.2581
G1 X107.784 Y131.067 E3.3663
G1 X111.383 Y130.717 E3.4745
G1 X114.844 Y129.67 E3.5828
G1 X118.084 Y127.937 E3.6928
G1 X120.857 Y125.661 E3.8001
G1 X123.149 Y122.87 E3.9083
G1 X124.86 Y119.671 E4.0168
G1 X125.565 Y117.344 E4.0896
G1 X127.129 Y115.95 E4.1524
G1 X128.429 Y114.595 E4.2085
G1 X129.409 Y113.345 E4.2561
G1 X130.024 Y112.272 E4.2931
G1 X130.262 Y111.465 E4.3183
G1 X130.202 Y111 E4.3323
G1 X129.951 Y110.732 E4.3433
G1 X129.334 Y110.552 E4.3626
G1 X128.479 Y110.573 E4.3882
G92 E0
; Repositioning
G1 X129.029 Y110.19 F4800
; Contour
G1 X129.193 Y109.776 E0.0133 F1200
G1 X129.583 Y109.41 E0.0293
G1 X130.674 Y108.207 E0.0779
G1 X131.574 Y107.007 E0.1229
G1 X132.25 Y105.861 E0.1627
G1 X132.676 Y104.818 E0.1964
G1 X132.838 Y103.926 E0.2236
G1 X132.745 Y103.229 E0.2446
G1 X132.422 Y102.735 E0.2623
G1 X131.871 Y102.426 E0.2812
G1 X131.073 Y102.317 E0.3053
G1 X130.056 Y102.435 E0.3359
G1 X128.868 Y102.784 E0.373
G1 X127.561 Y103.354 E0.4157
G1 X127.089 Y103.617 E0.4319
G1 X126.878 Y103.446 E0.44
G1 X127.04 Y102.936 E0.456
G1 X127.033 Y102.156 E0.4794
G1 X126.733 Y101.699 E0.4957
G1 X126.116 Y101.498 E0.5152
G1 X125.132 Y101.592 E0.5447
G1 X123.835 Y102.014 E0.5856
G1 X123.494 Y102.178 E0.5969
G1 X121.12 Y99.286 E0.7089
G1 X118.456 Y97.1 E0.8121
G1 X119.179 Y95.594 E0.8621
G1 X119.601 Y94.297 E0.9029
G1 X119.695 Y93.313 E0.9325
G1 X119.493 Y92.696 E0.9519
G1 X119.035 Y92.395 E0.9683
G1 X118.256 Y92.39 E0.9916
G1 X117.16 Y92.735 E1.026
G1 X116.837 Y92.903 E1.0369
G1 X116.768 Y92.49 E1.0494
G1 X117.024 Y92.033 E1.0651
G1 X117.594 Y90.727 E1.1078
G1 X117.942 Y89.539 E1.1448
G1 X118.06 Y88.521 E1.1755
G1 X117.952 Y87.724 E1.1996
G1 X117.643 Y87.171 E1.2185
G1 X117.148 Y86.85 E1.2362
G1 X116.451 Y86.757 E1.2573
G1 X115.56 Y86.919 E1.2844
G1 X114.516 Y87.343 E1.3181
G1 X113.37 Y88.019 E1.3579
G1 X112.171 Y88.921 E1.4028
G1 X110.967 Y90.011 E1.4514
G1 X110.589 Y90.415 E1.468
G1 X110.363 Y90.361 E1.475
G1 X110.256 Y89.996 E1.4864
G1 X109.827 Y89.594 E1.504
G1 X109.167 Y89.508 E1.5239
G1 X108.244 Y89.781 E1.5527
G1 X107.109 Y90.431 E1.5919
G1 X105.823 Y91.439 E1.6408
G1 X104.445 Y92.761 E1.698
G1 X103.029 Y94.349 E1.7616
G1 X102.911 Y94.499 E1.7673
G1 X100.593 Y95.202 E1.8399
G1 X97.329 Y96.95 E1.9507
G1 X94.482 Y99.286 E2.0609
G1 X92.16 Y102.115 E2.1705
G1 X90.392 Y105.419 E2.2827
G1 X89.325 Y108.951 E2.3931
G1 X88.967 Y112.587 E2.5025
G1 X89.325 Y116.258 E2.6129
G1 X90.392 Y119.791 E2.7234
G1 X92.128 Y123.049 E2.8339
G1 X94.479 Y125.921 E2.945
G1 X97.333 Y128.263 E3.0555
G1 X100.585 Y130.003 E3.1659
G1 X104.113 Y131.075 E3.2763
G1 X107.784 Y131.439 E3.3867
G1 X111.455 Y131.081 E3.4971
G1 X114.986 Y130.014 E3.6075
G1 X118.29 Y128.246 E3.7197
G1 X121.12 Y125.924 E3.8293
G1 X123.458 Y123.076 E3.9396
G1 X125.203 Y119.814 E4.0503
G1 X125.889 Y117.551 E4.1211
G1 X127.386 Y116.216 E4.1811
G1 X128.709 Y114.838 E4.2383
G1 X129.717 Y113.552 E4.2872
G1 X130.367 Y112.418 E4.3263
G1 X130.639 Y111.495 E4.3552
G1 X130.554 Y110.834 E4.3751
G1 X130.152 Y110.405 E4.3927
G1 X129.382 Y110.181 E4.4167
G1 X129.029 Y110.19 E4.4273
G92 E0
; Repositioning
G1 X128.194 Y110.555 F4800
; Infill
G1 X108.19 Y90.551 E0.8481 F2400
G1 X108.562 Y90.356 E0.8607
G1 X128.355 Y110.149 E1.6999
G1 X128.515 Y109.743 E1.713
G1 X108.999 Y90.227 E2.5404
G1 X109.639 Y90.301 E2.5597
G92 E0
; Repositioning
G1 X110.359 Y91.021 F4800
; Infill
G1 X128.698 Y109.36 E0.7775 F2400
G1 X128.991 Y109.086 E0.7896
G1 X110.913 Y91.008 E1.556
G1 X111.187 Y90.716 E1.568
G1 X117.688 Y97.216 E1.8436
G1 X117.872 Y96.833 E1.8564
G1 X111.465 Y90.427 E2.128
G1 X111.762 Y90.157 E2.14
G1 X118.055 Y96.451 E2.4068
G1 X118.239 Y96.068 E2.4196
G1 X112.059 Y89.888 E2.6816
G1 X112.357 Y89.619 E2.6936
G1 X116.295 Y93.557 E2.8606
G1 X116.182 Y92.877 E2.8812
G1 X112.66 Y89.356 E3.0306
G1 X112.984 Y89.113 E3.0427
G1 X116.15 Y92.279 E3.1769
G1 X116.354 Y91.916 E3.1894
G1 X113.307 Y88.87 E3.3186
G1 X113.631 Y88.626 E3.3307
G1 X116.54 Y91.536 E3.4541
G1 X116.712 Y91.142 E3.467
G1 X113.977 Y88.406 E3.5829
G1 X114.333 Y88.196 E3.5953
G1 X116.884 Y90.747 E3.7035
G1 X117.039 Y90.336 E3.7167
G1 X114.69 Y87.986 E3.8163
G1 X115.078 Y87.808 E3.8291
G1 X117.168 Y89.898 E3.9177
G1 X117.296 Y89.46 E3.9314
G1 X115.481 Y87.644 E4.0084
G1 X115.911 Y87.507 E4.0219
G1 X117.363 Y88.96 E4.0835
G1 X117.4 Y88.43 E4.0994
G1 X116.39 Y87.42 E4.1422
G1 X117.16 Y87.623 E4.1661
G92 E0
; Repositioning
G1 X116.946 Y87.707 F4800
G1 X115.777 Y92.535
G1 X115.883 Y92.556
G1 X118.605 Y93.034
; Infill
G1 X119.036 Y93.465 E0.0183 F2400
G1 X118.986 Y93.982 E0.0338
G1 X118.112 Y93.108 E0.0709
G1 X117.681 Y93.244 E0.0844
G1 X118.879 Y94.441 E0.1352
G1 X118.74 Y94.869 E0.1487
G1 X117.271 Y93.4 E0.2109
G1 X116.898 Y93.594 E0.2235
G1 X118.601 Y95.296 E0.2957
G1 X118.423 Y95.685 E0.3085
G1 X116.526 Y93.788 E0.389
G92 E0
; Repositioning
G1 X117.509 Y97.148 F4800
G1 X118.156 Y97.685
; Infill
G1 X122.726 Y102.255 E0.1938 F2400
G92 E0
; Repositioning
G1 X123.404 Y102.933 F4800
; Infill
G1 X129.271 Y108.799 E0.2487 F2400
G1 X129.54 Y108.502 E0.2607
G1 X123.787 Y102.749 E0.5047
G1 X124.181 Y102.576 E0.5176
G1 X129.809 Y108.205 E0.7562
G1 X130.079 Y107.907 E0.7682
G1 X124.609 Y102.437 E1.0001
G1 X125.036 Y102.299 E1.0136
G1 X126.2 Y103.462 E1.0629
G1 X126.336 Y103.032 E1.0765
G1 X125.506 Y102.201 E1.1116
G1 X126.023 Y102.152 E1.1272
G1 X126.394 Y102.523 E1.143
G92 E0
; Repositioning
G1 X126.042 Y103.043 F4800
G1 X125.912 Y103.44
G1 X127.09 Y104.352
; Infill
G1 X130.331 Y107.594 E0.1374 F2400
G1 X130.574 Y107.27 E0.1496
G1 X127.454 Y104.149 E0.2819
G1 X127.817 Y103.946 E0.2944
G1 X130.817 Y106.946 E0.4216
G1 X131.058 Y106.62 E0.4337
G1 X128.209 Y103.772 E0.5545
G1 X128.604 Y103.6 E0.5674
G1 X131.268 Y106.264 E0.6803
G1 X131.478 Y105.907 E0.6927
G1 X128.998 Y103.428 E0.7979
G1 X129.426 Y103.289 E0.8114
G1 X131.685 Y105.548 E0.9071
G1 X131.849 Y105.145 E0.9202
G1 X129.864 Y103.161 E1.0043
G1 X130.321 Y103.051 E1.0184
G1 X132.013 Y104.743 E1.0901
G1 X132.12 Y104.283 E1.1043
G1 X130.829 Y102.992 E1.159
G1 X131.415 Y103.011 E1.1766
G1 X132.169 Y103.765 E1.2086
G92 E0
; Repositioning
G1 X131.851 Y103.769 F4800
G1 X128.21 Y110.057
G1 X129.951 Y111.179
; Infill
G1 X129.909 Y111.703 E0.0158 F2400
G1 X129.037 Y110.832 E0.0527
G1 X128.484 Y110.845 E0.0693
G1 X129.779 Y112.141 E0.1242
G1 X129.577 Y112.505 E0.1367
G1 X107.83 Y90.758 E1.0587
G1 X107.47 Y90.964 E1.0712
G1 X129.371 Y112.865 E1.9997
G1 X129.161 Y113.221 E2.0121
G1 X107.152 Y91.213 E2.9453
G1 X106.835 Y91.462 E2.9574
G1 X128.912 Y113.539 E3.8934
G1 X128.663 Y113.856 E3.9055
G1 X106.517 Y91.711 E4.8444
G1 X106.203 Y91.964 E4.8565
G1 X128.414 Y114.174 E5.7982
G1 X128.158 Y114.485 E5.8102
G1 X105.914 Y92.241 E6.7533
G1 X105.625 Y92.519 E6.7654
G1 X127.881 Y114.774 E7.7089
G1 X127.603 Y115.063 E7.721
G1 X105.336 Y92.796 E8.665
G1 X105.047 Y93.074 E8.677
G1 X127.326 Y115.352 E9.6216
G1 X127.048 Y115.641 E9.6336
G1 X104.769 Y93.362 E10.5782
G1 X104.502 Y93.662 E10.5902
G1 X126.757 Y115.917 E11.5338
G1 X126.458 Y116.184 E11.5459
G1 X104.235 Y93.961 E12.4881
G1 X103.968 Y94.261 E12.5001
G1 X126.158 Y116.451 E13.4409
G1 X125.859 Y116.718 E13.453
G1 X103.701 Y94.56 E14.3924
G1 X103.44 Y94.866 E14.4045
G1 X125.559 Y116.985 E15.3423
G1 X125.298 Y117.29 E15.3544
G1 X103.116 Y95.108 E16.2948
G1 X102.681 Y95.24 E16.3085
G1 X125.166 Y117.725 E17.2618
G1 X125.034 Y118.16 E17.2754
G1 X102.246 Y95.372 E18.2416
G1 X101.811 Y95.503 E18.2552
G1 X124.902 Y118.594 E19.2342
G1 X124.77 Y119.029 E19.2478
G1 X101.377 Y95.635 E20.2396
G1 X100.942 Y95.767 E20.2533
G1 X124.639 Y119.464 E21.258
G1 X124.457 Y119.848 E21.2707
G1 X100.558 Y95.949 E22.284
G1 X100.189 Y96.147 E22.2965
G1 X124.259 Y120.217 E23.3171
G1 X124.062 Y120.587 E23.3296
G1 X99.82 Y96.344 E24.3574
G1 X99.451 Y96.542 E24.37
G1 X123.864 Y120.956 E25.4051
G1 X123.667 Y121.325 E25.4176
G1 X99.082 Y96.74 E26.46
G1 X98.713 Y96.937 E26.4725
G1 X123.469 Y121.694 E27.5222
G1 X123.272 Y122.063 E27.5347
G1 X98.344 Y97.135 E28.5916
G1 X97.975 Y97.332 E28.6042
G1 X123.074 Y122.432 E29.6684
G1 X122.864 Y122.788 E29.6808
G1 X97.619 Y97.543 E30.7511
G1 X97.307 Y97.798 E30.7632
G1 X122.608 Y123.099 E31.8359
G1 X122.353 Y123.41 E31.848
G1 X96.996 Y98.053 E32.923
G1 X96.685 Y98.309 E32.9351
G1 X122.098 Y123.721 E34.0126
G1 X121.842 Y124.033 E34.0246
G1 X96.374 Y98.564 E35.1044
G1 X96.062 Y98.819 E35.1165
G1 X121.587 Y124.344 E36.1987
G1 X121.331 Y124.655 E36.2108
G1 X95.751 Y99.075 E37.2953
G1 X95.44 Y99.33 E37.3074
G1 X121.076 Y124.966 E38.3943
G1 X120.821 Y125.277 E38.4064
G1 X95.129 Y99.585 E39.4956
G1 X94.839 Y99.862 E39.5077
G1 X120.544 Y125.567 E40.5975
G1 X120.232 Y125.822 E40.6095
G1 X94.584 Y100.174 E41.697
G1 X94.328 Y100.485 E41.7091
G1 X119.921 Y126.077 E42.7942
G1 X119.61 Y126.333 E42.8062
G1 X94.073 Y100.796 E43.8889
G1 X93.818 Y101.107 E43.901
G1 X119.299 Y126.588 E44.9814
G1 X118.988 Y126.843 E44.9934
G1 X93.562 Y101.418 E46.0714
G1 X93.307 Y101.729 E46.0835
G1 X118.676 Y127.099 E47.1591
G1 X118.365 Y127.354 E47.1712
G1 X93.051 Y102.04 E48.2444
G1 X92.796 Y102.352 E48.2565
G1 X118.054 Y127.609 E49.3274
G1 X117.707 Y127.83 E49.3397
G1 X92.576 Y102.698 E50.4052
G1 X92.378 Y103.067 E50.4178
G1 X117.338 Y128.027 E51.476
G1 X116.969 Y128.225 E51.4886
G1 X92.181 Y103.436 E52.5395
G1 X91.983 Y103.805 E52.5521
G1 X116.6 Y128.422 E53.5958
G1 X116.231 Y128.62 E53.6083
G1 X91.786 Y104.174 E54.6448
G1 X91.589 Y104.543 E54.6573
G1 X115.862 Y128.817 E55.6865
G1 X115.493 Y129.014 E55.699
G1 X91.391 Y104.912 E56.7209
G1 X91.194 Y105.282 E56.7335
G1 X115.124 Y129.212 E57.7481
G1 X114.755 Y129.409 E57.7606
G1 X90.996 Y105.651 E58.7679
G1 X90.862 Y106.083 E58.7815
G1 X114.323 Y129.544 E59.7762
G1 X113.888 Y129.675 E59.7898
G1 X90.73 Y106.518 E60.7717
G1 X90.599 Y106.953 E60.7853
G1 X113.453 Y129.807 E61.7542
G1 X113.018 Y129.938 E61.7679
G1 X90.468 Y107.388 E62.7239
G1 X90.336 Y107.823 E62.7376
G1 X112.583 Y130.07 E63.6808
G1 X112.147 Y130.201 E63.6944
G1 X90.205 Y108.259 E64.6247
G1 X90.073 Y108.694 E64.6383
G1 X111.712 Y130.333 E65.5558
G1 X111.268 Y130.455 E65.5696
G1 X89.952 Y109.139 E66.4734
G1 X89.901 Y109.654 E66.4889
G1 X110.751 Y130.505 E67.3729
G1 X110.235 Y130.555 E67.3885
G1 X89.85 Y110.17 E68.2528
G1 X89.799 Y110.686 E68.2683
G1 X109.719 Y130.605 E69.1129
G1 X109.203 Y130.656 E69.1284
G1 X89.748 Y111.201 E69.9533
G1 X89.698 Y111.717 E69.9688
G1 X108.686 Y130.706 E70.7739
G1 X108.17 Y130.756 E70.7894
G1 X89.647 Y112.233 E71.5748
G1 X89.631 Y112.784 E71.5913
G1 X107.625 Y130.778 E72.3542
G1 X106.996 Y130.716 E72.3732
G1 X89.692 Y113.412 E73.1068
G1 X89.753 Y114.039 E73.1257
G1 X106.368 Y130.653 E73.8301
G1 X105.739 Y130.591 E73.8491
G1 X89.815 Y114.667 E74.5242
G1 X89.876 Y115.295 E74.5432
G1 X105.11 Y130.529 E75.189
G1 X104.481 Y130.467 E75.208
G1 X89.937 Y115.923 E75.8246
G1 X90.121 Y116.673 E75.8478
G1 X103.738 Y130.29 E76.4251
G1 X102.924 Y130.043 E76.4506
G1 X90.366 Y117.485 E76.9831
G1 X90.611 Y118.296 E77.0085
G1 X102.11 Y129.795 E77.496
G1 X101.296 Y129.548 E77.5215
G1 X90.856 Y119.108 E77.9642
G1 X91.287 Y120.105 E77.9967
G1 X100.308 Y129.127 E78.3792
G1 X99.09 Y128.475 E78.4206
G1 X91.933 Y121.318 E78.7241
G1 X92.579 Y122.531 E78.7653
G1 X97.872 Y127.824 E78.9897
G1 X94.942 Y125.46 E79.1026
G1 E75.1026
G92 E0
      ; New Layer
; layer 3, Z = 0.839
; layer time : 00:00:29
; Repositioning
G0 Z0.839 F1000.02
; Repositioning with retraction
G1 X128.479 Y110.573 F4800
G1 E4 F2400
G92 E0
; Contour
G1 X128.879 Y109.563 E0.0325 F2400
G1 X129.319 Y109.15 E0.0506
G1 X130.388 Y107.971 E0.0982
G1 X131.266 Y106.802 E0.142
G1 X131.918 Y105.697 E0.1804
G1 X132.319 Y104.714 E0.2122
G1 X132.463 Y103.917 E0.2364
G1 X132.389 Y103.361 E0.2532
G1 X132.162 Y103.013 E0.2656
G1 X131.752 Y102.783 E0.2797
G1 X131.069 Y102.69 E0.3003
G1 X130.13 Y102.799 E0.3287
G1 X128.995 Y103.132 E0.3641
G1 X127.725 Y103.686 E0.4055
G1 X127.05 Y104.063 E0.4287
G1 X126.45 Y103.573 E0.4519
G1 X126.669 Y102.881 E0.4736
G1 X126.664 Y102.268 E0.492
G1 X126.495 Y102.01 E0.5012
G1 X126.074 Y101.873 E0.5144
G1 X125.208 Y101.957 E0.5405
G1 X123.973 Y102.358 E0.5794
G1 X123.392 Y102.637 E0.5987
G1 X120.857 Y99.549 E0.7183
G1 X117.997 Y97.202 E0.829
G1 X118.835 Y95.456 E0.887
G1 X119.237 Y94.221 E0.9259
G1 X119.319 Y93.355 E0.9519
G1 X119.181 Y92.934 E0.9652
G1 X118.923 Y92.764 E0.9744
G1 X118.312 Y92.76 E0.9927
G1 X117.302 Y93.078 E1.0244
G1 X116.556 Y93.466 E1.0496
G1 X116.382 Y92.422 E1.0812
G1 X116.692 Y91.869 E1.1002
G1 X117.245 Y90.601 E1.1416
G1 X117.578 Y89.465 E1.1771
G1 X117.688 Y88.525 E1.2054
G1 X117.595 Y87.843 E1.226
G1 X117.364 Y87.432 E1.2401
G1 X117.016 Y87.206 E1.2525
G1 X116.46 Y87.131 E1.2693
G1 X115.664 Y87.276 E1.2935
G1 X114.681 Y87.676 E1.3253
G1 X113.576 Y88.327 E1.3637
G1 X112.406 Y89.206 E1.4075
G1 X111.227 Y90.275 E1.4552
G1 X110.712 Y90.825 E1.4777
G1 X110.068 Y90.671 E1.4975
G1 X109.929 Y90.197 E1.5123
G1 X109.661 Y89.945 E1.5233
G1 X109.197 Y89.885 E1.5374
G1 X108.39 Y90.123 E1.5625
G1 X107.316 Y90.739 E1.5996
G1 X106.066 Y91.718 E1.6471
G1 X104.712 Y93.018 E1.7033
G1 X103.313 Y94.586 E1.7662
G1 X103.131 Y94.819 E1.7751
G1 X100.735 Y95.546 E1.85
G1 X97.534 Y97.26 E1.9587
G1 X94.745 Y99.549 E2.0667
G1 X92.449 Y102.346 E2.1751
G1 X90.733 Y105.568 E2.2843
G1 X89.689 Y109.029 E2.3925
G1 X89.339 Y112.582 E2.4994
G1 X89.689 Y116.18 E2.6076
G1 X90.733 Y119.642 E2.7159
G1 X92.434 Y122.836 E2.8242
G1 X94.742 Y125.657 E2.9333
G1 X97.538 Y127.953 E3.0416
G1 X100.725 Y129.658 E3.1498
G1 X104.182 Y130.71 E3.2579
G1 X107.779 Y131.067 E3.3661
G1 X111.376 Y130.717 E3.4743
G1 X114.838 Y129.672 E3.5826
G1 X118.059 Y127.957 E3.6918
G1 X120.857 Y125.661 E3.8001
G1 X123.147 Y122.872 E3.9082
G1 X124.86 Y119.671 E4.0168
G1 X125.565 Y117.344 E4.0896
G1 X127.129 Y115.95 E4.1523
G1 X128.429 Y114.595 E4.2085
G1 X129.409 Y113.345 E4.2561
G1 X130.024 Y112.272 E4.2931
G1 X130.262 Y111.465 E4.3183
G1 X130.202 Y111 E4.3323
G1 X129.951 Y110.732 E4.3433
G1 X129.334 Y110.552 E4.3626
G1 X128.479 Y110.573 E4.3882
G92 E0
; Repositioning
G1 X129.029 Y110.19 F4800
; Contour
G1 X129.193 Y109.776 E0.0133 F1200
G1 X129.583 Y109.41 E0.0293
G1 X130.674 Y108.207 E0.0779
G1 X131.574 Y107.007 E0.1229
G1 X132.25 Y105.861 E0.1627
G1 X132.676 Y104.818 E0.1964
G1 X132.838 Y103.926 E0.2236
G1 X132.745 Y103.229 E0.2446
G1 X132.422 Y102.735 E0.2623
G1 X131.871 Y102.426 E0.2812
G1 X131.073 Y102.317 E0.3053
G1 X130.056 Y102.435 E0.3359
G1 X128.868 Y102.784 E0.373
G1 X127.561 Y103.354 E0.4157
G1 X127.089 Y103.617 E0.4319
G1 X126.878 Y103.446 E0.44
G1 X127.04 Y102.936 E0.456
G1 X127.033 Y102.156 E0.4794
G1 X126.733 Y101.699 E0.4957
G1 X126.116 Y101.498 E0.5152
G1 X125.132 Y101.592 E0.5447
G1 X123.835 Y102.014 E0.5856
G1 X123.494 Y102.178 E0.5969
G1 X121.12 Y99.286 E0.7089
G1 X118.456 Y97.1 E0.8121
G1 X119.179 Y95.594 E0.8621
G1 X119.601 Y94.297 E0.9029
G1 X119.695 Y93.313 E0.9325
G1 X119.493 Y92.696 E0.9519
G1 X119.035 Y92.395 E0.9683
G1 X118.256 Y92.39 E0.9916
G1 X117.16 Y92.735 E1.026
G1 X116.837 Y92.903 E1.0369
G1 X116.768 Y92.49 E1.0494
G1 X117.024 Y92.033 E1.0651
G1 X117.594 Y90.727 E1.1078
G1 X117.942 Y89.539 E1.1448
G1 X118.06 Y88.521 E1.1755
G1 X117.952 Y87.724 E1.1996
G1 X117.643 Y87.171 E1.2185
G1 X117.148 Y86.85 E1.2362
G1 X116.451 Y86.757 E1.2573
G1 X115.56 Y86.919 E1.2844
G1 X114.516 Y87.343 E1.3181
G1 X113.37 Y88.019 E1.3579
G1 X112.171 Y88.921 E1.4028
G1 X110.967 Y90.011 E1.4514
G1 X110.589 Y90.415 E1.468
G1 X110.363 Y90.361 E1.475
G1 X110.256 Y89.996 E1.4864
G1 X109.827 Y89.594 E1.504
G1 X109.167 Y89.508 E1.5239
G1 X108.244 Y89.781 E1.5527
G1 X107.109 Y90.431 E1.5919
G1 X105.823 Y91.439 E1.6408
G1 X104.445 Y92.761 E1.698
G1 X103.029 Y94.349 E1.7616
G1 X102.911 Y94.499 E1.7673
G1 X100.593 Y95.202 E1.8399
G1 X97.327 Y96.951 E1.9508
G1 X94.482 Y99.286 E2.0609
G1 X92.139 Y102.14 E2.1715
G1 X90.39 Y105.426 E2.2829
G1 X89.324 Y108.957 E2.3933
G1 X88.967 Y112.582 E2.5023
G1 X89.324 Y116.252 E2.6127
G1 X90.39 Y119.784 E2.7231
G1 X92.124 Y123.042 E2.8337
G1 X94.479 Y125.92 E2.9449
G1 X97.332 Y128.262 E3.0554
G1 X100.582 Y130.001 E3.1658
G1 X104.109 Y131.074 E3.2761
G1 X107.778 Y131.438 E3.3865
G1 X111.448 Y131.082 E3.4969
G1 X114.979 Y130.016 E3.6073
G1 X118.265 Y128.266 E3.7187
G1 X121.12 Y125.924 E3.8293
G1 X123.456 Y123.078 E3.9395
G1 X125.203 Y119.814 E4.0503
G1 X125.889 Y117.551 E4.1211
G1 X127.386 Y116.216 E4.1811
G1 X128.709 Y114.838 E4.2383
G1 X129.717 Y113.552 E4.2872
G1 X130.367 Y112.418 E4.3263
G1 X130.639 Y111.495 E4.3552
G1 X130.554 Y110.834 E4.3751
G1 X130.152 Y110.405 E4.3927
G1 X129.382 Y110.181 E4.4167
G1 X129.029 Y110.19 E4.4273
G92 E0
; Repositioning
G1 X126.954 Y115.641 F4800
; Infill
G1 X104.773 Y93.46 E0.939 F2400
G1 X104.957 Y93.255 E0.9472
G1 X106.289 Y91.976 E1.0025
G1 X107.507 Y91.021 E1.0488
G1 X107.815 Y90.845 E1.0595
G1 X129.49 Y112.52 E1.977
G1 X129.709 Y112.138 E1.9902
G1 X129.916 Y111.438 E2.0121
G1 X129.879 Y111.153 E2.0207
G1 X129.767 Y111.033 E2.0256
G1 X129.289 Y110.894 E2.0405
G1 X127.974 Y110.926 E2.0799
G1 X128.591 Y109.367 E2.13
G1 X129.077 Y108.912 E2.15
G1 X130.126 Y107.755 E2.1967
G1 X130.235 Y107.608 E2.2022
G1 X127.069 Y104.442 E2.3363
G1 X127.014 Y104.472 E2.3381
G1 X126.056 Y103.691 E2.3752
G1 X126.119 Y103.491 E2.3814
G1 X125.007 Y102.38 E2.4285
G1 X124.1 Y102.674 E2.457
G1 X123.299 Y103.059 E2.4836
G1 X123.261 Y103.013 E2.4854
G1 X98.299 Y127.975 E3.5421
G1 X97.728 Y127.669 E3.5615
G1 X95.103 Y125.514 E3.6632
G1 X120.711 Y99.906 E4.7472
G1 X120.615 Y99.79 E4.7517
G1 X117.624 Y97.336 E4.8676
G1 X92.578 Y122.383 E5.9279
G1 X91.049 Y119.512 E6.0252
G1 X90.972 Y119.256 E6.0332
G1 X101.146 Y129.431 E6.4639
G1 X102.185 Y129.747 E6.4964
G1 X127.989 Y103.942 E7.5888
G1 X129.111 Y103.453 E7.6254
G1 X130.198 Y103.133 E7.6593
G1 X131.066 Y103.033 E7.6855
G1 X131.356 Y103.072 E7.6943
G1 X132.108 Y103.823 E7.7261
G1 X132.119 Y103.909 E7.7287
G1 X131.991 Y104.619 E7.7502
G1 X131.612 Y105.545 E7.7802
G1 X130.994 Y106.594 E7.8166
G1 X106.946 Y130.642 E8.8347
G1 X107.779 Y130.725 E8.8598
G1 X108.069 Y130.697 E8.8685
G1 X89.705 Y112.333 E9.6459
G1 X90.024 Y109.096 E9.7433
G1 X90.511 Y107.482 E9.7937
G1 X112.924 Y129.895 E10.7425
G1 X113.534 Y129.711 E10.7616
G1 X124.91 Y118.335 E11.2432
G1 X124.696 Y119.039 E11.2652
G1 X101.366 Y95.71 E12.2528
G1 X100.866 Y95.861 E12.2685
G1 X97.724 Y97.544 E12.3752
G1 X97.625 Y97.625 E12.379
G1 X122.781 Y122.781 E13.4439
G1 X120.615 Y125.42 E13.5461
G1 X120.147 Y125.804 E13.5643
G1 X94.602 Y100.259 E14.6457
G1 X92.733 Y102.536 E14.7339
G1 X92.208 Y103.522 E14.7673
G1 X116.884 Y128.198 E15.8119
G1 E11.8119
G92 E0
; Repositioning with retraction
G1 X117.504 Y97.03 F4800
G1 X118.167 Y95.729
G1 X118.336 Y95.709
G1 E4 F2400
G92 E0
; Infill
G1 X116.503 Y93.876 E0.0776
G92 E0
; Repositioning
G1 X115.777 Y92.535 F4800
G1 X116.95 Y89.42
G1 X117.289 Y89.005
; Infill
G1 X115.868 Y87.584 E0.0602 F2400
G1 X116.106 Y87.541 E0.0674
G1 X89.803 Y113.843 E1.1808
G1 X90.024 Y116.114 E1.2491
G1 X90.758 Y118.546 E1.3251
G1 X116.158 Y93.146 E2.4004
G1 X116.234 Y93.607 E2.4144
G1 X112.347 Y89.719 E2.579
G1 E-1.421
G92 E0
; Repositioning with retraction
G1 X112.016 Y90.027 F4800
G1 X111.718 Y90.293
G1 X102.678 Y95.312
G1 E4 F2400
G92 E0
; Infill
G1 X90.512 Y107.477 E0.515
G1 E-3.485
G92 E0
      ; New Layer
; layer 4, Z = 1.039
; layer time : 00:00:29
; Repositioning
G0 Z1.039 F1000.02
; Repositioning with retraction
G1 X128.479 Y110.573 F4800
G1 E4 F2400
G92 E0
; Contour
G1 X128.879 Y109.563 E0.0325
G1 X129.319 Y109.15 E0.0506
G1 X130.388 Y107.971 E0.0982
G1 X131.266 Y106.802 E0.142
G1 X131.918 Y105.697 E0.1804
G1 X132.319 Y104.714 E0.2122
G1 X132.463 Y103.917 E0.2364
G1 X132.389 Y103.361 E0.2532
G1 X132.162 Y103.013 E0.2656
G1 X131.752 Y102.783 E0.2797
G1 X131.069 Y102.69 E0.3003
G1 X130.13 Y102.799 E0.3287
G1 X128.995 Y103.132 E0.3641
G1 X127.725 Y103.686 E0.4055
G1 X127.05 Y104.063 E0.4287
G1 X126.45 Y103.573 E0.4519
G1 X126.669 Y102.881 E0.4736
G1 X126.664 Y102.268 E0.492
G1 X126.495 Y102.01 E0.5012
G1 X126.074 Y101.873 E0.5144
G1 X125.208 Y101.957 E0.5405
G1 X123.973 Y102.358 E0.5794
G1 X123.392 Y102.637 E0.5987
G1 X120.857 Y99.549 E0.7183
G1 X117.997 Y97.202 E0.829
G1 X118.835 Y95.456 E0.887
G1 X119.237 Y94.221 E0.9259
G1 X119.319 Y93.355 E0.9519
G1 X119.181 Y92.934 E0.9652
G1 X118.923 Y92.764 E0.9744
G1 X118.312 Y92.76 E0.9927
G1 X117.302 Y93.078 E1.0244
G1 X116.556 Y93.466 E1.0496
G1 X116.382 Y92.422 E1.0812
G1 X116.692 Y91.869 E1.1002
G1 X117.245 Y90.601 E1.1416
G1 X117.578 Y89.465 E1.1771
G1 X117.688 Y88.525 E1.2054
G1 X117.595 Y87.843 E1.226
G1 X117.364 Y87.432 E1.2401
G1 X117.016 Y87.206 E1.2525
G1 X116.46 Y87.131 E1.2693
G1 X115.664 Y87.276 E1.2935
G1 X114.681 Y87.676 E1.3253
G1 X113.576 Y88.327 E1.3637
G1 X112.406 Y89.206 E1.4075
G1 X111.227 Y90.275 E1.4552
G1 X110.712 Y90.825 E1.4777
G1 X110.068 Y90.671 E1.4975
G1 X109.929 Y90.197 E1.5123
G1 X109.661 Y89.945 E1.5233
G1 X109.197 Y89.885 E1.5374
G1 X108.39 Y90.123 E1.5625
G1 X107.316 Y90.739 E1.5996
G1 X106.066 Y91.718 E1.6471
G1 X104.712 Y93.018 E1.7033
G1 X103.313 Y94.586 E1.7662
G1 X103.131 Y94.819 E1.7751
G1 X100.735 Y95.546 E1.85
G1 X97.532 Y97.262 E1.9588
G1 X94.745 Y99.549 E2.0667
G1 X92.448 Y102.347 E2.1751
G1 X90.816 Y105.401 E2.2787
G1 X90.734 Y105.567 E2.2843
G1 X89.688 Y109.036 E2.3927
G1 X89.34 Y112.577 E2.4992
G1 X89.689 Y116.173 E2.6074
G1 X90.749 Y119.685 E2.7172
G1 X92.453 Y122.869 E2.8253
G1 X94.751 Y125.666 E2.9337
G1 X97.537 Y127.952 E3.0416
G1 X100.722 Y129.656 E3.1497
G1 X104.178 Y130.708 E3.2578
G1 X107.773 Y131.066 E3.366
G1 X111.37 Y130.718 E3.4741
G1 X114.831 Y129.674 E3.5823
G1 X118.059 Y127.957 E3.6918
G1 X120.857 Y125.661 E3.8001
G1 X123.145 Y122.874 E3.9081
G1 X124.86 Y119.671 E4.0168
G1 X125.565 Y117.344 E4.0896
G1 X127.129 Y115.95 E4.1523
G1 X128.429 Y114.595 E4.2085
G1 X129.409 Y113.345 E4.2561
G1 X130.024 Y112.272 E4.2931
G1 X130.262 Y111.465 E4.3183
G1 X130.202 Y111 E4.3323
G1 X129.951 Y110.732 E4.3433
G1 X129.334 Y110.552 E4.3626
G1 X128.479 Y110.573 E4.3882
G92 E0
; Repositioning
G1 X129.029 Y110.19 F4800
; Contour
G1 X129.193 Y109.776 E0.0133 F1200
G1 X129.583 Y109.41 E0.0293
G1 X130.674 Y108.207 E0.0779
G1 X131.574 Y107.007 E0.1229
G1 X132.25 Y105.861 E0.1627
G1 X132.676 Y104.818 E0.1964
G1 X132.838 Y103.926 E0.2236
G1 X132.745 Y103.229 E0.2446
G1 X132.422 Y102.735 E0.2623
G1 X131.871 Y102.426 E0.2812
G1 X131.073 Y102.317 E0.3053
G1 X130.056 Y102.435 E0.3359
G1 X128.868 Y102.784 E0.373
G1 X127.561 Y103.354 E0.4157
G1 X127.089 Y103.617 E0.4319
G1 X126.878 Y103.446 E0.44
G1 X127.04 Y102.936 E0.456
G1 X127.033 Y102.156 E0.4794
G1 X126.733 Y101.699 E0.4957
G1 X126.116 Y101.498 E0.5152
G1 X125.132 Y101.592 E0.5447
G1 X123.835 Y102.014 E0.5856
G1 X123.494 Y102.178 E0.5969
G1 X121.12 Y99.286 E0.7089
G1 X118.456 Y97.1 E0.8121
G1 X119.179 Y95.594 E0.8621
G1 X119.601 Y94.297 E0.9029
G1 X119.695 Y93.313 E0.9325
G1 X119.493 Y92.696 E0.9519
G1 X119.035 Y92.395 E0.9683
G1 X118.256 Y92.39 E0.9916
G1 X117.16 Y92.735 E1.026
G1 X116.837 Y92.903 E1.0369
G1 X116.768 Y92.49 E1.0494
G1 X117.024 Y92.033 E1.0651
G1 X117.594 Y90.727 E1.1078
G1 X117.942 Y89.539 E1.1448
G1 X118.06 Y88.521 E1.1755
G1 X117.952 Y87.724 E1.1996
G1 X117.643 Y87.171 E1.2185
G1 X117.148 Y86.85 E1.2362
G1 X116.451 Y86.757 E1.2573
G1 X115.56 Y86.919 E1.2844
G1 X114.516 Y87.343 E1.3181
G1 X113.37 Y88.019 E1.3579
G1 X112.171 Y88.921 E1.4028
G1 X110.967 Y90.011 E1.4514
G1 X110.589 Y90.415 E1.468
G1 X110.363 Y90.361 E1.475
G1 X110.256 Y89.996 E1.4864
G1 X109.827 Y89.594 E1.504
G1 X109.167 Y89.508 E1.5239
G1 X108.244 Y89.781 E1.5527
G1 X107.109 Y90.431 E1.5919
G1 X105.823 Y91.439 E1.6408
G1 X104.445 Y92.761 E1.698
G1 X103.029 Y94.349 E1.7616
G1 X102.911 Y94.499 E1.7673
G1 X100.593 Y95.202 E1.8399
G1 X97.325 Y96.953 E1.9509
G1 X94.482 Y99.286 E2.0609
G1 X92.139 Y102.14 E2.1715
G1 X90.487 Y105.231 E2.2764
G1 X90.388 Y105.431 E2.283
G1 X89.324 Y108.964 E2.3935
G1 X88.968 Y112.576 E2.5022
G1 X89.324 Y116.245 E2.6125
G1 X90.406 Y119.827 E2.7245
G1 X92.144 Y123.076 E2.8348
G1 X94.488 Y125.929 E2.9453
G1 X97.331 Y128.262 E3.0554
G1 X100.58 Y130 E3.1657
G1 X104.105 Y131.073 E3.276
G1 X107.773 Y131.438 E3.3864
G1 X111.442 Y131.083 E3.4967
G1 X114.972 Y130.018 E3.6071
G1 X118.266 Y128.266 E3.7187
G1 X121.12 Y125.924 E3.8293
G1 X123.454 Y123.08 E3.9394
G1 X125.203 Y119.814 E4.0503
G1 X125.889 Y117.551 E4.1211
G1 X127.386 Y116.216 E4.1811
G1 X128.709 Y114.838 E4.2383
G1 X129.717 Y113.552 E4.2872
G1 X130.367 Y112.418 E4.3263
G1 X130.639 Y111.495 E4.3551
G1 X130.554 Y110.834 E4.3751
G1 X130.152 Y110.405 E4.3927
G1 X129.382 Y110.181 E4.4167
G1 X129.029 Y110.19 E4.4273
G92 E0
; Repositioning
G1 X126.954 Y115.641 F4800
; Infill
G1 X104.773 Y93.46 E0.939 F2400
G1 X104.957 Y93.255 E0.9472
G1 X106.289 Y91.976 E1.0025
G1 X107.507 Y91.021 E1.0488
G1 X107.815 Y90.845 E1.0595
G1 X129.49 Y112.52 E1.977
G1 X129.709 Y112.138 E1.9902
G1 X129.916 Y111.438 E2.0121
G1 X129.879 Y111.153 E2.0207
G1 X129.767 Y111.033 E2.0256
G1 X129.289 Y110.894 E2.0405
G1 X127.974 Y110.926 E2.0799
G1 X128.591 Y109.367 E2.13
G1 X129.077 Y108.912 E2.15
G1 X130.126 Y107.755 E2.1967
G1 X130.235 Y107.608 E2.2022
G1 X127.069 Y104.442 E2.3363
G1 X127.014 Y104.472 E2.3381
G1 X126.056 Y103.691 E2.3752
G1 X126.119 Y103.491 E2.3814
G1 X125.007 Y102.38 E2.4285
G1 X124.1 Y102.674 E2.457
G1 X123.299 Y103.059 E2.4836
G1 X123.261 Y103.013 E2.4854
G1 X98.3 Y127.975 E3.5421
G1 X97.727 Y127.668 E3.5615
G1 X95.102 Y125.515 E3.6632
G1 X120.711 Y99.906 E4.7473
G1 X120.615 Y99.79 E4.7518
G1 X117.624 Y97.336 E4.8676
G1 X92.578 Y122.382 E5.9279
G1 X91.065 Y119.554 E6.0239
G1 X90.976 Y119.261 E6.0331
G1 X101.146 Y129.43 E6.4636
G1 X102.185 Y129.746 E6.4961
G1 X127.989 Y103.942 E7.5885
G1 X129.111 Y103.453 E7.6251
G1 X130.198 Y103.133 E7.659
G1 X131.066 Y103.033 E7.6852
G1 X131.356 Y103.072 E7.6939
G1 X132.108 Y103.823 E7.7257
G1 X132.119 Y103.909 E7.7283
G1 X131.991 Y104.619 E7.7499
G1 X131.612 Y105.545 E7.7799
G1 X130.994 Y106.594 E7.8163
G1 X106.946 Y130.642 E8.8343
G1 X107.774 Y130.724 E8.8592
G1 X108.068 Y130.696 E8.8681
G1 X89.705 Y112.333 E9.6455
G1 X90.024 Y109.102 E9.7426
G1 X90.512 Y107.482 E9.7933
G1 X112.924 Y129.894 E10.7421
G1 X113.535 Y129.71 E10.7612
G1 X124.91 Y118.335 E11.2427
G1 X124.696 Y119.039 E11.2647
G1 X101.366 Y95.71 E12.2524
G1 X100.866 Y95.861 E12.268
G1 X97.722 Y97.546 E12.3748
G1 X97.625 Y97.625 E12.3785
G1 X122.781 Y122.781 E13.4435
G1 X120.615 Y125.42 E13.5457
G1 X120.147 Y125.804 E13.5638
G1 X94.602 Y100.259 E14.6452
G1 X92.732 Y102.537 E14.7334
G1 X92.207 Y103.52 E14.7668
G1 X116.883 Y128.197 E15.8115
G1 E11.8115
G92 E0
; Repositioning with retraction
G1 X117.504 Y97.03 F4800
G1 X118.167 Y95.729
G1 X118.336 Y95.709
G1 E4 F2400
G92 E0
; Infill
G1 X116.503 Y93.876 E0.0776
G92 E0
; Repositioning
G1 X115.777 Y92.535 F4800
G1 X116.95 Y89.42
G1 X117.289 Y89.005
; Infill
G1 X115.868 Y87.584 E0.0602 F2400
G1 X116.106 Y87.541 E0.0674
G1 X89.804 Y113.843 E1.1808
G1 X90.024 Y116.107 E1.2489
G1 X90.76 Y118.544 E1.3251
G1 X116.158 Y93.146 E2.4003
G1 X116.234 Y93.607 E2.4143
G1 X112.347 Y89.719 E2.5788
G1 E-1.4212
G92 E0
; Repositioning with retraction
G1 X112.016 Y90.027 F4800
G1 X111.718 Y90.293
G1 X102.678 Y95.312
G1 E4 F2400
G92 E0
; Infill
G1 X90.513 Y107.476 E0.515
G1 E-3.485
G92 E0
              ; New Layer
; layer 5, Z = 1.239
; layer time : 00:00:29
; Repositioning
G0 Z1.239 F1000.02
; Repositioning with retraction
G1 X128.479 Y110.573 F4800
G1 E4 F2400
G92 E0
; Contour
G1 X128.879 Y109.563 E0.0325
G1 X129.319 Y109.15 E0.0506
G1 X130.388 Y107.971 E0.0982
G1 X131.266 Y106.802 E0.142
G1 X131.918 Y105.697 E0.1804
G1 X132.319 Y104.714 E0.2122
G1 X132.463 Y103.917 E0.2364
G1 X132.389 Y103.361 E0.2532
G1 X132.162 Y103.013 E0.2656
G1 X131.752 Y102.783 E0.2797
G1 X131.069 Y102.69 E0.3003
G1 X130.13 Y102.799 E0.3287
G1 X128.995 Y103.132 E0.3641
G1 X127.725 Y103.686 E0.4055
G1 X127.05 Y104.063 E0.4287
G1 X126.45 Y103.573 E0.4519
G1 X126.669 Y102.881 E0.4736
G1 X126.664 Y102.268 E0.492
G1 X126.495 Y102.01 E0.5012
G1 X126.074 Y101.873 E0.5144
G1 X125.208 Y101.957 E0.5405
G1 X123.973 Y102.358 E0.5794
G1 X123.392 Y102.637 E0.5987
G1 X120.857 Y99.549 E0.7183
G1 X117.997 Y97.202 E0.829
G1 X118.835 Y95.456 E0.887
G1 X119.237 Y94.221 E0.9259
G1 X119.319 Y93.355 E0.9519
G1 X119.181 Y92.934 E0.9652
G1 X118.923 Y92.764 E0.9744
G1 X118.312 Y92.76 E0.9927
G1 X117.302 Y93.078 E1.0244
G1 X116.556 Y93.466 E1.0496
G1 X116.382 Y92.422 E1.0812
G1 X116.692 Y91.869 E1.1002
G1 X117.245 Y90.601 E1.1416
G1 X117.578 Y89.465 E1.1771
G1 X117.688 Y88.525 E1.2054
G1 X117.595 Y87.843 E1.226
G1 X117.364 Y87.432 E1.2401
G1 X117.016 Y87.206 E1.2525
G1 X116.46 Y87.131 E1.2693
G1 X115.664 Y87.276 E1.2935
G1 X114.681 Y87.676 E1.3253
G1 X113.576 Y88.327 E1.3637
G1 X112.406 Y89.206 E1.4075
G1 X111.227 Y90.275 E1.4552
G1 X110.712 Y90.825 E1.4777
G1 X110.068 Y90.671 E1.4975
G1 X109.929 Y90.197 E1.5123
G1 X109.661 Y89.945 E1.5233
G1 X109.197 Y89.885 E1.5374
G1 X108.39 Y90.123 E1.5625
G1 X107.316 Y90.739 E1.5996
G1 X106.066 Y91.718 E1.6471
G1 X104.712 Y93.018 E1.7033
G1 X103.313 Y94.586 E1.7662
G1 X103.131 Y94.819 E1.7751
G1 X100.735 Y95.546 E1.85
G1 X97.529 Y97.264 E1.9589
G1 X94.745 Y99.549 E2.0667
G1 X92.448 Y102.347 E2.1751
G1 X90.742 Y105.539 E2.2834
G1 X89.692 Y109.002 E2.3918
G1 X89.34 Y112.571 E2.4991
G1 X89.699 Y116.232 E2.6092
G1 X90.75 Y119.687 E2.7173
G1 X92.454 Y122.87 E2.8254
G1 X94.752 Y125.667 E2.9337
G1 X97.536 Y127.951 E3.0416
G1 X100.72 Y129.655 E3.1496
G1 X104.174 Y130.707 E3.2577
G1 X107.768 Y131.065 E3.3658
G1 X111.429 Y130.707 E3.4759
G1 X114.867 Y129.663 E3.5835
G1 X118.06 Y127.956 E3.6919
G1 X120.846 Y125.67 E3.7998
G1 X123.143 Y122.877 E3.908
G1 X124.852 Y119.686 E4.0164
G1 X125.566 Y117.344 E4.0897
G1 X127.129 Y115.95 E4.1524
G1 X128.429 Y114.595 E4.2086
G1 X129.409 Y113.345 E4.2561
G1 X130.024 Y112.272 E4.2931
G1 X130.262 Y111.465 E4.3183
G1 X130.202 Y111 E4.3324
G1 X129.951 Y110.732 E4.3434
G1 X129.334 Y110.552 E4.3626
G1 X128.479 Y110.573 E4.3882
G92 E0
; Repositioning
G1 X129.029 Y110.19 F4800
; Contour
G1 X129.193 Y109.776 E0.0133 F1200
G1 X129.583 Y109.41 E0.0293
G1 X130.674 Y108.207 E0.0779
G1 X131.574 Y107.007 E0.1229
G1 X132.25 Y105.861 E0.1627
G1 X132.676 Y104.818 E0.1964
G1 X132.838 Y103.926 E0.2236
G1 X132.745 Y103.229 E0.2446
G1 X132.422 Y102.735 E0.2623
G1 X131.871 Y102.426 E0.2812
G1 X131.073 Y102.317 E0.3053
G1 X130.056 Y102.435 E0.3359
G1 X128.868 Y102.784 E0.373
G1 X127.561 Y103.354 E0.4157
G1 X127.089 Y103.617 E0.4319
G1 X126.878 Y103.446 E0.44
G1 X127.04 Y102.936 E0.456
G1 X127.033 Y102.156 E0.4794
G1 X126.733 Y101.699 E0.4957
G1 X126.116 Y101.498 E0.5152
G1 X125.132 Y101.592 E0.5447
G1 X123.835 Y102.014 E0.5856
G1 X123.494 Y102.178 E0.5969
G1 X121.12 Y99.286 E0.7089
G1 X118.456 Y97.1 E0.8121
G1 X119.179 Y95.594 E0.8621
G1 X119.601 Y94.297 E0.9029
G1 X119.695 Y93.313 E0.9325
G1 X119.493 Y92.696 E0.9519
G1 X119.035 Y92.395 E0.9683
G1 X118.256 Y92.39 E0.9916
G1 X117.16 Y92.735 E1.026
G1 X116.837 Y92.903 E1.0369
G1 X116.768 Y92.49 E1.0494
G1 X117.024 Y92.033 E1.0651
G1 X117.594 Y90.727 E1.1078
G1 X117.942 Y89.539 E1.1448
G1 X118.06 Y88.521 E1.1755
G1 X117.952 Y87.724 E1.1996
G1 X117.643 Y87.171 E1.2185
G1 X117.148 Y86.85 E1.2362
G1 X116.451 Y86.757 E1.2573
G1 X115.56 Y86.919 E1.2844
G1 X114.516 Y87.343 E1.3181
G1 X113.37 Y88.019 E1.3579
G1 X112.171 Y88.921 E1.4028
G1 X110.967 Y90.011 E1.4514
G1 X110.589 Y90.415 E1.468
G1 X110.363 Y90.361 E1.475
G1 X110.256 Y89.996 E1.4864
G1 X109.827 Y89.594 E1.504
G1 X109.167 Y89.508 E1.5239
G1 X108.244 Y89.781 E1.5527
G1 X107.109 Y90.431 E1.5919
G1 X105.823 Y91.439 E1.6408
G1 X104.445 Y92.761 E1.698
G1 X103.029 Y94.349 E1.7616
G1 X102.911 Y94.499 E1.7673
G1 X100.593 Y95.202 E1.8399
G1 X97.323 Y96.955 E1.9509
G1 X94.482 Y99.286 E2.0609
G1 X92.139 Y102.14 E2.1715
G1 X90.399 Y105.396 E2.282
G1 X89.327 Y108.93 E2.3925
G1 X88.968 Y112.571 E2.502
G1 X89.335 Y116.304 E2.6143
G1 X90.407 Y119.829 E2.7246
G1 X92.145 Y123.077 E2.8349
G1 X94.489 Y125.93 E2.9454
G1 X97.33 Y128.261 E3.0554
G1 X100.577 Y129.999 E3.1657
G1 X104.101 Y131.072 E3.2759
G1 X107.767 Y131.437 E3.3862
G1 X111.501 Y131.072 E3.4985
G1 X115.009 Y130.007 E3.6083
G1 X118.267 Y128.265 E3.7188
G1 X121.109 Y125.933 E3.8289
G1 X123.452 Y123.084 E3.9393
G1 X125.195 Y119.829 E4.0498
G1 X125.889 Y117.551 E4.1211
G1 X127.386 Y116.216 E4.1812
G1 X128.709 Y114.838 E4.2383
G1 X129.717 Y113.552 E4.2872
G1 X130.367 Y112.418 E4.3264
G1 X130.639 Y111.495 E4.3552
G1 X130.554 Y110.834 E4.3751
G1 X130.152 Y110.405 E4.3927
G1 X129.382 Y110.181 E4.4167
G1 X129.029 Y110.19 E4.4273
G92 E0
; Repositioning
G1 X128.21 Y110.057 F4800
G1 X128.526 Y109.531
G1 X130.235 Y107.608
; Infill
G1 X127.069 Y104.442 E0.1341 F2400
G1 X127.014 Y104.472 E0.1359
G1 X126.056 Y103.691 E0.173
G1 X126.119 Y103.491 E0.1792
G1 X125.007 Y102.38 E0.2263
G1 X124.1 Y102.674 E0.2548
G1 X123.299 Y103.059 E0.2814
G1 X123.261 Y103.013 E0.2832
G1 X98.3 Y127.974 E1.3399
G1 X97.726 Y127.667 E1.3594
G1 X95.102 Y125.515 E1.461
G1 X120.711 Y99.906 E2.5451
G1 X120.615 Y99.79 E2.5496
G1 X117.624 Y97.336 E2.6654
G1 X92.578 Y122.382 E3.7257
G1 X91.066 Y119.556 E3.8216
G1 X90.976 Y119.26 E3.8308
G1 X101.145 Y129.429 E4.2613
G1 X102.185 Y129.746 E4.2939
G1 X127.989 Y103.942 E5.3863
G1 X129.111 Y103.453 E5.4229
G1 X130.198 Y103.133 E5.4568
G1 X131.066 Y103.033 E5.483
G1 X131.356 Y103.072 E5.4917
G1 X132.108 Y103.823 E5.5235
G1 X132.119 Y103.909 E5.5261
G1 X131.991 Y104.619 E5.5477
G1 X131.612 Y105.545 E5.5777
G1 X130.994 Y106.594 E5.6141
G1 X106.946 Y130.642 E6.6321
G1 X107.768 Y130.724 E6.6569
G1 X108.067 Y130.694 E6.6658
G1 X89.705 Y112.333 E7.4432
G1 E3.4432
G92 E0
; Repositioning with retraction
G1 X89.964 Y112.482 F4800
G1 X116.885 Y128.199
G1 E4 F2400
G92 E0
; Infill
G1 X92.207 Y103.52 E1.0447
G1 X92.732 Y102.537 E1.0781
G1 X94.602 Y100.259 E1.1663
G1 X120.147 Y125.804 E2.2477
G1 X120.605 Y125.429 E2.2655
G1 X122.781 Y122.781 E2.368
G1 X97.625 Y97.625 E3.433
G1 X97.719 Y97.548 E3.4366
G1 X100.866 Y95.861 E3.5435
G1 X101.366 Y95.71 E3.5591
G1 X124.694 Y119.037 E4.5467
G1 X124.908 Y118.337 E4.5686
G1 X113.531 Y129.713 E5.0502
G1 X112.926 Y129.897 E5.0691
G1 X90.509 Y107.479 E6.0181
G1 X90.508 Y107.482 E6.0182
G1 X102.678 Y95.312 E6.5334
G1 X103.333 Y95.113 E6.5539
G1 X103.574 Y94.804 E6.5656
G1 X104.773 Y93.46 E6.6195
G1 X126.954 Y115.641 E7.5585
G1 X128.172 Y114.372 E7.6111
G1 X129.126 Y113.155 E7.6575
G1 X129.49 Y112.52 E7.6794
G1 X107.815 Y90.845 E8.5969
G1 X108.525 Y90.438 E8.6214
G1 X109.225 Y90.232 E8.6433
G1 X109.509 Y90.268 E8.6518
G1 X109.629 Y90.381 E8.6568
G1 X109.796 Y90.956 E8.6747
G1 X110.825 Y91.202 E8.7064
G1 X111.466 Y90.518 E8.7344
G1 X112.347 Y89.719 E8.77
G1 X116.234 Y93.607 E8.9346
G1 X116.158 Y93.146 E8.9486
G1 X90.759 Y118.545 E10.0238
G1 X90.034 Y116.165 E10.0983
G1 X89.806 Y113.84 E10.1682
G1 X116.106 Y87.541 E11.2815
G1 X115.868 Y87.584 E11.2887
G1 X117.289 Y89.005 E11.3489
G92 E0
; Repositioning
G1 X116.95 Y89.42 F4800
G1 X115.777 Y92.535
G1 X116.503 Y93.876
; Infill
G1 X118.336 Y95.709 E0.0776 F2400
G1 E-3.9224
G92 E0
      ; New Layer
; layer 6, Z = 1.439
; layer time : 00:00:28
; Repositioning
G0 Z1.439 F1000.02
; Repositioning with retraction
G1 X118.304 Y97.04 F4800
G1 X118.306 Y97.079
G1 X128.479 Y110.573
G1 E4 F2400
G92 E0
; Contour
G1 X128.879 Y109.563 E0.0325
G1 X129.319 Y109.15 E0.0506
G1 X130.388 Y107.971 E0.0982
G1 X131.266 Y106.802 E0.142
G1 X131.918 Y105.697 E0.1804
G1 X132.319 Y104.714 E0.2122
G1 X132.463 Y103.917 E0.2364
G1 X132.389 Y103.361 E0.2532
G1 X132.162 Y103.013 E0.2656
G1 X131.752 Y102.783 E0.2797
G1 X131.069 Y102.69 E0.3003
G1 X130.13 Y102.799 E0.3287
G1 X128.995 Y103.132 E0.3641
G1 X127.725 Y103.686 E0.4055
G1 X127.05 Y104.063 E0.4287
G1 X126.45 Y103.573 E0.4519
G1 X126.669 Y102.881 E0.4736
G1 X126.664 Y102.268 E0.492
G1 X126.495 Y102.01 E0.5012
G1 X126.074 Y101.873 E0.5144
G1 X125.208 Y101.957 E0.5405
G1 X123.973 Y102.358 E0.5794
G1 X123.392 Y102.637 E0.5987
G1 X120.857 Y99.549 E0.7183
G1 X117.997 Y97.202 E0.829
G1 X118.835 Y95.456 E0.887
G1 X119.237 Y94.221 E0.9259
G1 X119.319 Y93.355 E0.9519
G1 X119.181 Y92.934 E0.9652
G1 X118.923 Y92.764 E0.9744
G1 X118.312 Y92.76 E0.9927
G1 X117.302 Y93.078 E1.0244
G1 X116.556 Y93.466 E1.0496
G1 X116.382 Y92.422 E1.0812
G1 X116.692 Y91.869 E1.1002
G1 X117.245 Y90.601 E1.1416
G1 X117.578 Y89.465 E1.1771
G1 X117.688 Y88.525 E1.2054
G1 X117.595 Y87.843 E1.226
G1 X117.364 Y87.432 E1.2401
G1 X117.016 Y87.206 E1.2525
G1 X116.46 Y87.131 E1.2693
G1 X115.664 Y87.276 E1.2935
G1 X114.681 Y87.676 E1.3253
G1 X113.576 Y88.327 E1.3637
G1 X112.406 Y89.206 E1.4075
G1 X111.227 Y90.275 E1.4552
G1 X110.712 Y90.825 E1.4777
G1 X110.068 Y90.671 E1.4975
G1 X109.929 Y90.197 E1.5123
G1 X109.661 Y89.945 E1.5233
G1 X109.197 Y89.885 E1.5374
G1 X108.39 Y90.123 E1.5625
G1 X107.316 Y90.739 E1.5996
G1 X106.066 Y91.718 E1.6471
G1 X104.712 Y93.018 E1.7033
G1 X103.313 Y94.586 E1.7662
G1 X103.131 Y94.819 E1.7751
G1 X100.736 Y95.546 E1.85
G1 X97.527 Y97.266 E1.959
G1 X94.745 Y99.549 E2.0667
G1 X92.448 Y102.347 E2.1751
G1 X90.742 Y105.539 E2.2834
G1 X89.692 Y109.002 E2.3918
G1 X89.338 Y112.593 E2.4998
G1 Y112.615 E2.5004
G1 X89.7 Y116.235 E2.6093
G1 X90.752 Y119.689 E2.7174
G1 X92.455 Y122.871 E2.8254
G1 X94.753 Y125.668 E2.9338
G1 X97.535 Y127.951 E3.0415
G1 X100.717 Y129.654 E3.1496
G1 X104.17 Y130.706 E3.2576
G1 X107.79 Y131.068 E3.3665
G1 X107.812 E3.3672
G1 X111.432 Y130.706 E3.4761
G1 X114.867 Y129.663 E3.5835
G1 X118.061 Y127.956 E3.6919
G1 X120.845 Y125.672 E3.7997
G1 X123.141 Y122.879 E3.9079
G1 X124.85 Y119.689 E4.0163
G1 X125.566 Y117.344 E4.0897
G1 X127.129 Y115.95 E4.1524
G1 X128.429 Y114.595 E4.2086
G1 X129.409 Y113.345 E4.2561
G1 X130.024 Y112.272 E4.2932
G1 X130.262 Y111.465 E4.3183
G1 X130.202 Y111 E4.3324
G1 X129.951 Y110.732 E4.3434
G1 X129.334 Y110.552 E4.3626
G1 X128.479 Y110.573 E4.3882
G92 E0
; Repositioning
G1 X129.029 Y110.19 F4800
; Contour
G1 X129.193 Y109.776 E0.0133 F1200
G1 X129.583 Y109.41 E0.0293
G1 X130.674 Y108.207 E0.0779
G1 X131.574 Y107.007 E0.1229
G1 X132.25 Y105.861 E0.1627
G1 X132.676 Y104.818 E0.1964
G1 X132.838 Y103.926 E0.2236
G1 X132.745 Y103.229 E0.2446
G1 X132.422 Y102.735 E0.2623
G1 X131.871 Y102.426 E0.2812
G1 X131.073 Y102.317 E0.3053
G1 X130.056 Y102.435 E0.3359
G1 X128.868 Y102.784 E0.373
G1 X127.561 Y103.354 E0.4157
G1 X127.089 Y103.617 E0.4319
G1 X126.878 Y103.446 E0.44
G1 X127.04 Y102.936 E0.456
G1 X127.033 Y102.156 E0.4794
G1 X126.733 Y101.699 E0.4957
G1 X126.116 Y101.498 E0.5152
G1 X125.132 Y101.592 E0.5447
G1 X123.835 Y102.014 E0.5856
G1 X123.494 Y102.178 E0.5969
G1 X121.12 Y99.286 E0.7089
G1 X118.456 Y97.1 E0.8121
G1 X119.179 Y95.594 E0.8621
G1 X119.601 Y94.297 E0.9029
G1 X119.695 Y93.313 E0.9325
G1 X119.493 Y92.696 E0.9519
G1 X119.035 Y92.395 E0.9683
G1 X118.256 Y92.39 E0.9916
G1 X117.16 Y92.735 E1.026
G1 X116.837 Y92.903 E1.0369
G1 X116.768 Y92.49 E1.0494
G1 X117.024 Y92.033 E1.0651
G1 X117.594 Y90.727 E1.1078
G1 X117.942 Y89.539 E1.1448
G1 X118.06 Y88.521 E1.1755
G1 X117.952 Y87.724 E1.1996
G1 X117.643 Y87.171 E1.2185
G1 X117.148 Y86.85 E1.2362
G1 X116.451 Y86.757 E1.2573
G1 X115.56 Y86.919 E1.2844
G1 X114.516 Y87.343 E1.3181
G1 X113.37 Y88.019 E1.3579
G1 X112.171 Y88.921 E1.4028
G1 X110.967 Y90.011 E1.4514
G1 X110.589 Y90.415 E1.468
G1 X110.363 Y90.361 E1.475
G1 X110.256 Y89.996 E1.4864
G1 X109.827 Y89.594 E1.504
G1 X109.167 Y89.508 E1.5239
G1 X108.244 Y89.781 E1.5527
G1 X107.109 Y90.431 E1.5919
G1 X105.823 Y91.439 E1.6408
G1 X104.445 Y92.761 E1.698
G1 X103.029 Y94.349 E1.7616
G1 X102.911 Y94.499 E1.7673
G1 X100.593 Y95.202 E1.8399
G1 X97.32 Y96.957 E1.951
G1 X94.482 Y99.286 E2.0609
G1 X92.139 Y102.14 E2.1715
G1 X90.399 Y105.396 E2.282
G1 X89.327 Y108.93 E2.3925
G1 X88.968 Y112.575 E2.5022
G1 Y112.634 E2.5039
G1 X89.336 Y116.308 E2.6145
G1 X90.408 Y119.832 E2.7247
G1 X92.146 Y123.078 E2.8349
G1 X94.49 Y125.931 E2.9455
G1 X97.328 Y128.26 E3.0554
G1 X100.575 Y129.997 E3.1656
G1 X104.097 Y131.071 E3.2758
G1 X107.772 Y131.438 E3.3863
G1 X107.83 E3.3881
G1 X111.505 Y131.071 E3.4986
G1 X115.009 Y130.007 E3.6083
G1 X118.267 Y128.265 E3.7189
G1 X121.107 Y125.935 E3.8288
G1 X123.45 Y123.086 E3.9392
G1 X125.194 Y119.832 E4.0498
G1 X125.889 Y117.551 E4.1211
G1 X127.386 Y116.216 E4.1812
G1 X128.709 Y114.838 E4.2383
G1 X129.717 Y113.552 E4.2872
G1 X130.367 Y112.418 E4.3264
G1 X130.639 Y111.495 E4.3552
G1 X130.554 Y110.834 E4.3751
G1 X130.152 Y110.405 E4.3927
G1 X129.382 Y110.181 E4.4167
G1 X129.029 Y110.19 E4.4273
G92 E0
; Repositioning
G1 X128.21 Y110.057 F4800
G1 X128.526 Y109.531
G1 X130.235 Y107.608
; Infill
G1 X127.069 Y104.442 E0.1341 F2400
G1 X127.014 Y104.472 E0.1359
G1 X126.056 Y103.691 E0.173
G1 X126.119 Y103.491 E0.1792
G1 X125.007 Y102.38 E0.2263
G1 X124.1 Y102.674 E0.2548
G1 X123.299 Y103.059 E0.2814
G1 X123.261 Y103.013 E0.2832
G1 X98.3 Y127.974 E1.3399
G1 X97.725 Y127.667 E1.3594
G1 X95.102 Y125.515 E1.461
G1 X120.711 Y99.906 E2.5451
G1 X120.615 Y99.79 E2.5496
G1 X117.624 Y97.336 E2.6654
G1 X92.579 Y122.382 E3.7256
G1 X91.067 Y119.558 E3.8215
G1 X90.977 Y119.261 E3.8308
G1 X101.144 Y129.428 E4.2612
G1 X102.185 Y129.746 E4.2938
G1 X127.989 Y103.942 E5.3862
G1 X129.111 Y103.453 E5.4228
G1 X130.198 Y103.133 E5.4567
G1 X131.066 Y103.033 E5.4829
G1 X131.356 Y103.072 E5.4916
G1 X132.108 Y103.823 E5.5234
G1 X132.119 Y103.909 E5.526
G1 X131.991 Y104.619 E5.5476
G1 X131.612 Y105.545 E5.5776
G1 X130.994 Y106.594 E5.614
G1 X106.946 Y130.642 E6.632
G1 X107.801 Y130.727 E6.6577
G1 X108.072 Y130.7 E6.6659
G1 X89.705 Y112.333 E7.4435
G1 E3.4435
G92 E0
; Repositioning with retraction
G1 X89.965 Y112.477 F4800
G1 X116.885 Y128.199
G1 E4 F2400
G92 E0
; Infill
G1 X92.207 Y103.52 E1.0447
G1 X92.732 Y102.537 E1.0781
G1 X94.602 Y100.259 E1.1663
G1 X120.147 Y125.804 E2.2477
G1 X120.603 Y125.43 E2.2654
G1 X122.781 Y122.781 E2.368
G1 X97.625 Y97.625 E3.433
G1 X97.717 Y97.55 E3.4365
G1 X100.866 Y95.861 E3.5435
G1 X101.366 Y95.71 E3.5591
G1 X124.694 Y119.037 E4.5467
G1 X124.907 Y118.338 E4.5686
G1 X113.531 Y129.713 E5.0501
G1 X112.926 Y129.897 E5.0691
G1 X90.509 Y107.479 E6.0181
G1 X90.508 Y107.482
G1 X102.678 Y95.312 E6.5333
G1 X103.333 Y95.113 E6.5538
G1 X103.574 Y94.804 E6.5655
G1 X104.773 Y93.46 E6.6195
G1 X126.954 Y115.641 E7.5585
G1 X128.172 Y114.372 E7.6111
G1 X129.126 Y113.155 E7.6574
G1 X129.49 Y112.52 E7.6793
G1 X107.815 Y90.845 E8.5969
G1 X108.525 Y90.438 E8.6214
G1 X109.225 Y90.232 E8.6432
G1 X109.509 Y90.268 E8.6518
G1 X109.629 Y90.381 E8.6567
G1 X109.796 Y90.956 E8.6746
G1 X110.825 Y91.202 E8.7063
G1 X111.466 Y90.518 E8.7344
G1 X112.347 Y89.719 E8.77
G1 X116.234 Y93.607 E8.9345
G1 X116.158 Y93.146 E8.9485
G1 X90.759 Y118.545 E10.0237
G1 X90.035 Y116.168 E10.0981
G1 X89.803 Y113.844 E10.168
G1 X116.106 Y87.541 E11.2815
G1 X115.868 Y87.584 E11.2887
G1 X117.289 Y89.005 E11.3489
G92 E0
; Repositioning
G1 X116.95 Y89.42 F4800
G1 X115.777 Y92.535
G1 X116.503 Y93.876
; Infill
G1 X118.336 Y95.709 E0.0776 F2400
G1 E-3.9224
G92 E0
              ; New Layer
; layer 7, Z = 1.639
; layer time : 00:00:28
; Repositioning
G0 Z1.639 F1000.02
; Repositioning with retraction
G1 X118.304 Y97.04 F4800
G1 X118.306 Y97.079
G1 X128.479 Y110.573
G1 E4 F2400
G92 E0
               ; Contour
; Preset : Recommended
; Path width : 0.4
; Path height : 0.2
G1 X128.479 Y110.573 F2400
G1 X128.879 Y109.563 E0.0325
G1 X129.319 Y109.15 E0.0506
G1 X130.388 Y107.971 E0.0982
G1 X131.266 Y106.802 E0.142
G1 X131.918 Y105.697 E0.1804
G1 X132.319 Y104.714 E0.2122
G1 X132.463 Y103.917 E0.2364
G1 X132.389 Y103.361 E0.2532
G1 X132.162 Y103.013 E0.2656
G1 X131.752 Y102.783 E0.2797
G1 X131.069 Y102.69 E0.3003
G1 X130.13 Y102.799 E0.3287
G1 X128.995 Y103.132 E0.3641
G1 X127.725 Y103.686 E0.4055
G1 X127.05 Y104.063 E0.4287
G1 X126.45 Y103.573 E0.4519
G1 X126.669 Y102.881 E0.4736
G1 X126.664 Y102.268 E0.492
G1 X126.495 Y102.01 E0.5012
G1 X126.074 Y101.873 E0.5144
G1 X125.208 Y101.957 E0.5405
G1 X123.973 Y102.358 E0.5794
G1 X123.392 Y102.637 E0.5987
G1 X120.857 Y99.548 E0.7183
G1 X117.997 Y97.202 E0.829
G1 X118.835 Y95.456 E0.887
G1 X119.237 Y94.221 E0.9259
G1 X119.319 Y93.355 E0.9519
G1 X119.181 Y92.934 E0.9652
G1 X118.923 Y92.764 E0.9744
G1 X118.312 Y92.76 E0.9927
G1 X117.302 Y93.078 E1.0244
G1 X116.556 Y93.466 E1.0496
G1 X116.382 Y92.422 E1.0812
G1 X116.692 Y91.869 E1.1002
G1 X117.245 Y90.601 E1.1416
G1 X117.578 Y89.465 E1.1771
G1 X117.688 Y88.525 E1.2054
G1 X117.595 Y87.843 E1.226
G1 X117.364 Y87.432 E1.2401
G1 X117.016 Y87.206 E1.2525
G1 X116.46 Y87.131 E1.2693
G1 X115.664 Y87.276 E1.2935
G1 X114.681 Y87.676 E1.3253
G1 X113.576 Y88.327 E1.3637
G1 X112.406 Y89.206 E1.4075
G1 X111.227 Y90.275 E1.4552
G1 X110.712 Y90.825 E1.4777
G1 X110.068 Y90.671 E1.4975
G1 X109.929 Y90.197 E1.5123
G1 X109.661 Y89.945 E1.5233
G1 X109.197 Y89.885 E1.5374
G1 X108.39 Y90.123 E1.5625
G1 X107.316 Y90.739 E1.5996
G1 X106.066 Y91.718 E1.6471
G1 X104.712 Y93.018 E1.7033
G1 X103.313 Y94.586 E1.7662
G1 X103.131 Y94.819 E1.7751
G1 X100.736 Y95.546 E1.85
G1 X97.525 Y97.268 E1.9591
G1 X94.745 Y99.549 E2.0667
G1 X92.448 Y102.347 E2.1751
G1 X90.742 Y105.539 E2.2834
G1 X89.692 Y109.002 E2.3917
G1 X89.338 Y112.588 E2.4996
G1 Y112.621 E2.5006
G1 X89.702 Y116.239 E2.6094
G1 X90.753 Y119.692 E2.7175
G1 X92.456 Y122.873 E2.8255
G1 X94.754 Y125.669 E2.9338
G1 X97.534 Y127.95 E3.0415
G1 X100.715 Y129.653 E3.1495
G1 X104.166 Y130.705 E3.2575
G1 X107.785 Y131.067 E3.3663
G1 X107.817 E3.3673
G1 X111.436 Y130.705 E3.4762
G1 X114.867 Y129.663 E3.5835
G1 X118.061 Y127.956 E3.6919
G1 X120.843 Y125.673 E3.7996
G1 X123.139 Y122.881 E3.9078
G1 X124.849 Y119.691 E4.0162
G1 X125.566 Y117.344 E4.0897
G1 X127.129 Y115.95 E4.1524
G1 X128.429 Y114.595 E4.2086
G1 X129.409 Y113.345 E4.2561
G1 X130.024 Y112.272 E4.2931
G1 X130.262 Y111.465 E4.3183
G1 X130.202 Y111 E4.3324
G1 X129.951 Y110.732 E4.3433
G1 X129.334 Y110.552 E4.3626
G1 X128.479 Y110.573 E4.3882
G92 E0
; Repositioning
G1 X129.029 Y110.19 F4800
; Contour
G1 X129.193 Y109.776 E0.0133 F1200
G1 X129.583 Y109.41 E0.0293
G1 X130.674 Y108.207 E0.0779
G1 X131.574 Y107.007 E0.1229
G1 X132.25 Y105.861 E0.1627
G1 X132.676 Y104.818 E0.1964
G1 X132.838 Y103.926 E0.2236
G1 X132.745 Y103.229 E0.2446
G1 X132.422 Y102.735 E0.2623
G1 X131.871 Y102.426 E0.2812
G1 X131.073 Y102.317 E0.3053
G1 X130.056 Y102.435 E0.3359
G1 X128.868 Y102.784 E0.373
G1 X127.561 Y103.354 E0.4157
G1 X127.089 Y103.617 E0.4319
G1 X126.878 Y103.446 E0.44
G1 X127.04 Y102.936 E0.456
G1 X127.033 Y102.156 E0.4794
G1 X126.733 Y101.699 E0.4957
G1 X126.116 Y101.498 E0.5152
G1 X125.132 Y101.592 E0.5447
G1 X123.835 Y102.014 E0.5856
G1 X123.494 Y102.178 E0.5969
G1 X121.12 Y99.286 E0.7089
G1 X118.456 Y97.1 E0.8121
G1 X119.179 Y95.594 E0.8621
G1 X119.601 Y94.297 E0.9029
G1 X119.695 Y93.313 E0.9325
G1 X119.493 Y92.696 E0.9519
G1 X119.035 Y92.395 E0.9683
G1 X118.256 Y92.39 E0.9916
G1 X117.16 Y92.735 E1.026
G1 X116.837 Y92.903 E1.0369
G1 X116.768 Y92.49 E1.0494
G1 X117.024 Y92.033 E1.0651
G1 X117.594 Y90.727 E1.1078
G1 X117.942 Y89.539 E1.1448
G1 X118.06 Y88.521 E1.1755
G1 X117.952 Y87.724 E1.1996
G1 X117.643 Y87.171 E1.2185
G1 X117.148 Y86.85 E1.2362
G1 X116.451 Y86.757 E1.2573
G1 X115.56 Y86.919 E1.2844
G1 X114.516 Y87.343 E1.3181
G1 X113.37 Y88.019 E1.3579
G1 X112.171 Y88.921 E1.4028
G1 X110.967 Y90.011 E1.4514
G1 X110.589 Y90.415 E1.468
G1 X110.363 Y90.361 E1.475
G1 X110.256 Y89.996 E1.4864
G1 X109.827 Y89.594 E1.504
G1 X109.167 Y89.508 E1.5239
G1 X108.244 Y89.781 E1.5527
G1 X107.109 Y90.431 E1.5919
G1 X105.823 Y91.439 E1.6408
G1 X104.445 Y92.761 E1.698
G1 X103.029 Y94.349 E1.7616
G1 X102.911 Y94.499 E1.7673
G1 X100.593 Y95.202 E1.8399
G1 X97.318 Y96.959 E1.9511
G1 X94.482 Y99.286 E2.0609
G1 X92.139 Y102.14 E2.1715
G1 X90.399 Y105.396 E2.282
G1 X89.327 Y108.93 E2.3925
G1 X88.968 Y112.57 E2.502
G1 Y112.639 E2.5041
G1 X89.337 Y116.312 E2.6146
G1 X90.41 Y119.834 E2.7248
G1 X92.147 Y123.079 E2.835
G1 X94.491 Y125.932 E2.9455
G1 X97.327 Y128.259 E3.0553
G1 X100.572 Y129.996 E3.1655
G1 X104.093 Y131.069 E3.2757
G1 X107.766 Y131.437 E3.3862
G1 X107.836 E3.3883
G1 X111.509 Y131.069 E3.4988
G1 X115.009 Y130.007 E3.6083
G1 X118.267 Y128.265 E3.7189
G1 X121.106 Y125.936 E3.8287
G1 X123.448 Y123.088 E3.9391
G1 X125.192 Y119.834 E4.0496
G1 X125.889 Y117.551 E4.1211
G1 X127.386 Y116.216 E4.1811
G1 X128.709 Y114.838 E4.2383
G1 X129.717 Y113.552 E4.2872
G1 X130.367 Y112.418 E4.3263
G1 X130.639 Y111.495 E4.3552
G1 X130.554 Y110.834 E4.3751
G1 X130.152 Y110.405 E4.3927
G1 X129.382 Y110.181 E4.4167
G1 X129.029 Y110.19 E4.4273
G92 E0
; Repositioning
G1 X128.21 Y110.057 F4800
G1 X128.526 Y109.531
G1 X130.235 Y107.608
; Infill
G1 X127.069 Y104.442 E0.1341 F2400
G1 X127.014 Y104.472 E0.1359
G1 X126.056 Y103.691 E0.173
G1 X126.119 Y103.491 E0.1792
G1 X125.007 Y102.38 E0.2263
G1 X124.1 Y102.674 E0.2548
G1 X123.299 Y103.059 E0.2814
G1 X123.261 Y103.013 E0.2832
G1 X98.3 Y127.974 E1.3399
G1 X97.724 Y127.666 E1.3595
G1 X95.102 Y125.515 E1.461
G1 X120.711 Y99.906 E2.545
G1 X120.615 Y99.79 E2.5495
G1 X117.624 Y97.336 E2.6654
G1 X92.579 Y122.382 E3.7256
G1 X91.069 Y119.561 E3.8214
G1 X90.978 Y119.262 E3.8308
G1 X101.143 Y129.428 E4.2611
G1 X102.186 Y129.745 E4.2937
G1 X127.989 Y103.942 E5.3861
G1 X129.111 Y103.453 E5.4227
G1 X130.198 Y103.133 E5.4566
G1 X131.066 Y103.033 E5.4828
G1 X131.356 Y103.072 E5.4915
G1 X132.108 Y103.823 E5.5234
G1 X132.119 Y103.909 E5.5259
G1 X131.991 Y104.619 E5.5475
G1 X131.612 Y105.545 E5.5775
G1 X130.994 Y106.594 E5.6139
G1 X106.946 Y130.641 E6.6319
G1 X107.801 Y130.727 E6.6576
G1 X108.072 Y130.7 E6.6658
G1 X89.705 Y112.333 E7.4434
G1 E3.4434
G92 E0
; Repositioning with retraction
G1 X89.965 Y112.472 F4800
G1 X116.885 Y128.199
G1 E4 F2400
G92 E0
; Infill
G1 X92.207 Y103.52 E1.0447
G1 X92.732 Y102.537 E1.0781
G1 X94.602 Y100.259 E1.1663
G1 X120.147 Y125.804 E2.2477
G1 X120.601 Y125.431 E2.2653
G1 X122.781 Y122.781 E2.368
G1 X97.625 Y97.625 E3.433
G1 X97.715 Y97.552 E3.4364
G1 X100.867 Y95.861 E3.5435
G1 X101.366 Y95.71 E3.5591
G1 X124.693 Y119.037 E4.5466
G1 X124.907 Y118.338 E4.5685
G1 X113.531 Y129.713 E5.0501
G1 X112.926 Y129.897 E5.069
G1 X90.509 Y107.479 E6.018
G1 X90.508 Y107.482 E6.0181
G1 X102.678 Y95.312 E6.5333
G1 X103.333 Y95.113 E6.5538
G1 X103.574 Y94.804 E6.5655
G1 X104.773 Y93.46 E6.6194
G1 X126.954 Y115.641 E7.5584
G1 X128.172 Y114.372 E7.611
G1 X129.126 Y113.155 E7.6573
G1 X129.49 Y112.52 E7.6793
G1 X107.815 Y90.845 E8.5968
G1 X108.525 Y90.438 E8.6213
G1 X109.225 Y90.232 E8.6432
G1 X109.509 Y90.268 E8.6517
G1 X109.629 Y90.381 E8.6567
G1 X109.796 Y90.956 E8.6746
G1 X110.825 Y91.202 E8.7063
G1 X111.466 Y90.518 E8.7343
G1 X112.347 Y89.719 E8.7699
G1 X116.234 Y93.607 E8.9345
G1 X116.158 Y93.146 E8.9485
G1 X90.759 Y118.544 E10.0237
G1 X90.037 Y116.172 E10.0979
G1 X89.803 Y113.844 E10.168
G1 X116.106 Y87.541 E11.2814
G1 X115.868 Y87.584 E11.2886
G1 X117.289 Y89.005 E11.3488
G92 E0
; Repositioning
G1 X116.95 Y89.42 F4800
G1 X115.777 Y92.535
G1 X116.503 Y93.876
; Infill
G1 X118.336 Y95.709 E0.0776 F2400
G1 E-3.9224
G92 E0
    ; New Layer
; layer 8, Z = 1.839
; layer time : 00:00:28
; Repositioning
G0 Z1.839 F1000.02
; Repositioning with retraction
G1 X118.304 Y97.04 F4800
G1 X118.306 Y97.079
G1 X128.479 Y110.573
G1 E4 F2400
G92 E0
; Contour
G1 X128.879 Y109.563 E0.0325
G1 X129.319 Y109.15 E0.0506
G1 X130.388 Y107.971 E0.0982
G1 X131.266 Y106.802 E0.142
G1 X131.918 Y105.697 E0.1804
G1 X132.319 Y104.714 E0.2122
G1 X132.463 Y103.917 E0.2364
G1 X132.389 Y103.361 E0.2532
G1 X132.162 Y103.013 E0.2656
G1 X131.752 Y102.783 E0.2797
G1 X131.069 Y102.69 E0.3003
G1 X130.13 Y102.799 E0.3287
G1 X128.995 Y103.132 E0.3641
G1 X127.725 Y103.686 E0.4055
G1 X127.05 Y104.063 E0.4287
G1 X126.45 Y103.573 E0.4519
G1 X126.669 Y102.881 E0.4736
G1 X126.664 Y102.268 E0.492
G1 X126.495 Y102.01 E0.5012
G1 X126.074 Y101.873 E0.5144
G1 X125.208 Y101.957 E0.5405
G1 X123.973 Y102.358 E0.5794
G1 X123.392 Y102.637 E0.5987
G1 X120.857 Y99.548 E0.7183
G1 X117.997 Y97.202 E0.829
G1 X118.835 Y95.456 E0.887
G1 X119.237 Y94.221 E0.9259
G1 X119.319 Y93.355 E0.9519
G1 X119.181 Y92.934 E0.9652
G1 X118.923 Y92.764 E0.9744
G1 X118.312 Y92.76 E0.9927
G1 X117.302 Y93.078 E1.0244
G1 X116.556 Y93.466 E1.0496
G1 X116.382 Y92.422 E1.0812
G1 X116.692 Y91.869 E1.1002
G1 X117.245 Y90.601 E1.1416
G1 X117.578 Y89.465 E1.1771
G1 X117.688 Y88.525 E1.2054
G1 X117.595 Y87.843 E1.226
G1 X117.364 Y87.432 E1.2401
G1 X117.016 Y87.206 E1.2525
G1 X116.46 Y87.131 E1.2693
G1 X115.664 Y87.276 E1.2935
G1 X114.681 Y87.676 E1.3253
G1 X113.576 Y88.327 E1.3637
G1 X112.406 Y89.206 E1.4075
G1 X111.227 Y90.275 E1.4552
G1 X110.712 Y90.825 E1.4777
G1 X110.068 Y90.671 E1.4975
G1 X109.929 Y90.197 E1.5123
G1 X109.661 Y89.945 E1.5233
G1 X109.197 Y89.885 E1.5374
G1 X108.39 Y90.123 E1.5625
G1 X107.316 Y90.739 E1.5996
G1 X106.066 Y91.718 E1.6471
G1 X104.712 Y93.018 E1.7033
G1 X103.313 Y94.586 E1.7662
G1 X103.131 Y94.819 E1.7751
G1 X100.736 Y95.546 E1.85
G1 X97.523 Y97.27 E1.9592
G1 X94.745 Y99.549 E2.0667
G1 X92.448 Y102.347 E2.1751
G1 X90.742 Y105.539 E2.2834
G1 X89.692 Y109.002 E2.3917
G1 X89.339 Y112.582 E2.4994
G1 Y112.627 E2.5008
G1 X89.689 Y116.18 E2.6077
G1 X89.697 Y116.223 E2.6089
G1 X90.754 Y119.694 E2.7176
G1 X92.457 Y122.874 E2.8255
G1 X94.755 Y125.67 E2.9339
G1 X97.533 Y127.949 E3.0414
G1 X100.713 Y129.651 E3.1494
G1 X104.183 Y130.71 E3.258
G1 X104.225 Y130.717 E3.2593
G1 X107.779 Y131.067 E3.3662
G1 X107.823 E3.3675
G1 X111.377 Y130.717 E3.4744
G1 X111.42 Y130.71 E3.4757
G1 X114.867 Y129.663 E3.5835
G1 X118.061 Y127.955 E3.692
G1 X120.841 Y125.674 E3.7996
G1 X123.137 Y122.883 E3.9078
G1 X124.848 Y119.694 E4.0161
G1 X125.566 Y117.344 E4.0897
G1 X127.129 Y115.95 E4.1524
G1 X128.429 Y114.595 E4.2086
G1 X129.409 Y113.345 E4.2561
G1 X130.024 Y112.272 E4.2932
G1 X130.262 Y111.465 E4.3183
G1 X130.202 Y111 E4.3324
G1 X129.951 Y110.732 E4.3434
G1 X129.334 Y110.552 E4.3626
G1 X128.479 Y110.573 E4.3882
G92 E0
; Repositioning
G1 X129.029 Y110.19 F4800
; Contour
G1 X129.193 Y109.776 E0.0133 F1200
G1 X129.583 Y109.41 E0.0293
G1 X130.674 Y108.207 E0.0779
G1 X131.574 Y107.007 E0.1229
G1 X132.25 Y105.861 E0.1627
G1 X132.676 Y104.818 E0.1964
G1 X132.838 Y103.926 E0.2236
G1 X132.745 Y103.229 E0.2446
G1 X132.422 Y102.735 E0.2623
G1 X131.871 Y102.426 E0.2812
G1 X131.073 Y102.317 E0.3053
G1 X130.056 Y102.435 E0.3359
G1 X128.868 Y102.784 E0.373
G1 X127.561 Y103.354 E0.4157
G1 X127.089 Y103.617 E0.4319
G1 X126.878 Y103.446 E0.44
G1 X127.04 Y102.936 E0.456
G1 X127.033 Y102.156 E0.4794
G1 X126.733 Y101.699 E0.4957
G1 X126.116 Y101.498 E0.5152
G1 X125.132 Y101.592 E0.5447
G1 X123.835 Y102.014 E0.5856
G1 X123.494 Y102.178 E0.5969
G1 X121.12 Y99.286 E0.7089
G1 X118.456 Y97.1 E0.8121
G1 X119.179 Y95.594 E0.8621
G1 X119.601 Y94.297 E0.9029
G1 X119.695 Y93.313 E0.9325
G1 X119.493 Y92.696 E0.9519
G1 X119.035 Y92.395 E0.9683
G1 X118.256 Y92.39 E0.9916
G1 X117.16 Y92.735 E1.026
G1 X116.837 Y92.903 E1.0369
G1 X116.768 Y92.49 E1.0494
G1 X117.024 Y92.033 E1.0651
G1 X117.594 Y90.727 E1.1078
G1 X117.942 Y89.539 E1.1448
G1 X118.06 Y88.521 E1.1755
G1 X117.952 Y87.724 E1.1996
G1 X117.643 Y87.171 E1.2185
G1 X117.148 Y86.85 E1.2362
G1 X116.451 Y86.757 E1.2573
G1 X115.56 Y86.919 E1.2844
G1 X114.516 Y87.343 E1.3181
G1 X113.37 Y88.019 E1.3579
G1 X112.171 Y88.921 E1.4028
G1 X110.967 Y90.011 E1.4514
G1 X110.589 Y90.415 E1.468
G1 X110.363 Y90.361 E1.475
G1 X110.256 Y89.996 E1.4864
G1 X109.827 Y89.594 E1.504
G1 X109.167 Y89.508 E1.5239
G1 X108.244 Y89.781 E1.5527
G1 X107.109 Y90.431 E1.5919
G1 X105.823 Y91.439 E1.6408
G1 X104.445 Y92.761 E1.698
G1 X103.029 Y94.349 E1.7616
G1 X102.911 Y94.499 E1.7673
G1 X100.593 Y95.202 E1.8399
G1 X97.316 Y96.961 E1.9512
G1 X94.482 Y99.286 E2.0609
G1 X92.139 Y102.14 E2.1715
G1 X90.399 Y105.396 E2.282
G1 X89.327 Y108.93 E2.3925
G1 X88.969 Y112.564 E2.5018
G1 Y112.645 E2.5042
G1 X89.322 Y116.231 E2.6121
G1 X89.336 Y116.309 E2.6145
G1 X90.411 Y119.837 E2.7249
G1 X92.148 Y123.08 E2.835
G1 X94.492 Y125.933 E2.9455
G1 X97.326 Y128.258 E3.0553
G1 X100.57 Y129.995 E3.1654
G1 X104.096 Y131.07 E3.2758
G1 X104.175 Y131.084 E3.2782
G1 X107.761 Y131.437 E3.386
G1 X107.841 E3.3884
G1 X111.427 Y131.084 E3.4963
G1 X111.506 Y131.07 E3.4987
G1 X115.009 Y130.007 E3.6083
G1 X118.268 Y128.265 E3.7189
G1 X121.104 Y125.938 E3.8287
G1 X123.446 Y123.09 E3.9391
G1 X125.191 Y119.837 E4.0496
G1 X125.889 Y117.551 E4.1211
G1 X127.386 Y116.216 E4.1811
G1 X128.709 Y114.838 E4.2383
G1 X129.717 Y113.552 E4.2872
G1 X130.367 Y112.418 E4.3264
G1 X130.639 Y111.495 E4.3552
G1 X130.554 Y110.834 E4.3751
G1 X130.152 Y110.405 E4.3927
G1 X129.382 Y110.181 E4.4167
G1 X129.029 Y110.19 E4.4273
G92 E0
; Repositioning
G1 X128.21 Y110.056 F4800
G1 X128.526 Y109.531
G1 X130.235 Y107.608
; Infill
G1 X127.069 Y104.442 E0.1341 F2400
G1 X127.014 Y104.472 E0.1359
G1 X126.056 Y103.691 E0.173
G1 X126.119 Y103.491 E0.1792
G1 X125.007 Y102.38 E0.2263
G1 X124.1 Y102.674 E0.2548
G1 X123.299 Y103.059 E0.2814
G1 X123.261 Y103.013 E0.2832
G1 X98.3 Y127.974 E1.3399
G1 X97.723 Y127.665 E1.3595
G1 X95.102 Y125.515 E1.4609
G1 X120.711 Y99.906 E2.545
G1 X120.615 Y99.79 E2.5495
G1 X117.624 Y97.336 E2.6654
G1 X92.579 Y122.382 E3.7256
G1 X91.07 Y119.563 E3.8213
G1 X90.978 Y119.263 E3.8307
G1 X101.143 Y129.427 E4.261
G1 X102.186 Y129.745 E4.2936
G1 X127.989 Y103.942 E5.386
G1 X129.111 Y103.453 E5.4226
G1 X130.198 Y103.133 E5.4565
G1 X131.066 Y103.033 E5.4827
G1 X131.356 Y103.072 E5.4915
G1 X132.108 Y103.823 E5.5233
G1 X132.119 Y103.909 E5.5258
G1 X131.991 Y104.619 E5.5474
G1 X131.612 Y105.545 E5.5774
G1 X130.994 Y106.594 E5.6138
G1 X106.945 Y130.643 E6.6319
G1 X107.795 Y130.727 E6.6575
G1 X107.807 E6.6578
G1 X108.073 Y130.7 E6.6658
G1 X89.705 Y112.333 E7.4434
G1 E3.4434
G92 E0
; Repositioning with retraction
G1 X89.966 Y112.467 F4800
G1 X116.885 Y128.199
G1 E4 F2400
G92 E0
; Infill
G1 X92.207 Y103.52 E1.0447
G1 X92.732 Y102.537 E1.0781
G1 X94.602 Y100.259 E1.1663
G1 X120.147 Y125.804 E2.2477
G1 X120.6 Y125.433 E2.2653
G1 X122.781 Y122.781 E2.368
G1 X97.625 Y97.625 E3.433
G1 X97.713 Y97.554 E3.4364
G1 X100.867 Y95.861 E3.5435
G1 X101.366 Y95.71 E3.5591
G1 X124.693 Y119.036 E4.5466
G1 X124.906 Y118.338 E4.5685
G1 X113.531 Y129.713 E5.05
G1 X112.926 Y129.897 E5.0689
G1 X90.509 Y107.479 E6.018
G1 X90.508 Y107.482
G1 X102.678 Y95.312 E6.5332
G1 X103.333 Y95.113 E6.5537
G1 X103.574 Y94.804 E6.5654
G1 X104.773 Y93.46 E6.6194
G1 X126.954 Y115.641 E7.5584
G1 X128.172 Y114.372 E7.611
G1 X129.126 Y113.155 E7.6573
G1 X129.49 Y112.52 E7.6792
G1 X107.815 Y90.845 E8.5968
G1 X108.525 Y90.438 E8.6213
G1 X109.225 Y90.232 E8.6431
G1 X109.509 Y90.268 E8.6517
G1 X109.629 Y90.381 E8.6566
G1 X109.796 Y90.956 E8.6745
G1 X110.825 Y91.202 E8.7062
G1 X111.466 Y90.518 E8.7343
G1 X112.347 Y89.719 E8.7699
G1 X116.234 Y93.607 E8.9344
G1 X116.158 Y93.146 E8.9484
G1 X90.759 Y118.544 E10.0236
G1 X90.028 Y116.143 E10.0987
G1 X90.026 Y116.134 E10.099
G1 X89.801 Y113.846 E10.1678
G1 X116.106 Y87.541 E11.2814
G1 X115.868 Y87.584 E11.2886
G1 X117.289 Y89.005 E11.3488
G92 E0
; Repositioning
G1 X116.95 Y89.42 F4800
G1 X115.777 Y92.535
G1 X116.503 Y93.876
; Infill
G1 X118.336 Y95.709 E0.0776 F2400
G1 E-3.9224
G92 E0
      ; New Layer
; layer 9, Z = 2.039
; layer time : 00:00:28
; Repositioning
G0 Z2.039 F1000.02
; Repositioning with retraction
G1 X118.304 Y97.04 F4800
G1 X118.306 Y97.079
G1 X128.479 Y110.573
G1 E4 F2400
G92 E0
; Contour
G1 X128.879 Y109.563 E0.0325
G1 X129.319 Y109.15 E0.0506
G1 X130.388 Y107.971 E0.0982
G1 X131.266 Y106.802 E0.142
G1 X131.918 Y105.697 E0.1804
G1 X132.319 Y104.714 E0.2122
G1 X132.463 Y103.917 E0.2364
G1 X132.389 Y103.361 E0.2532
G1 X132.162 Y103.013 E0.2656
G1 X131.752 Y102.783 E0.2797
G1 X131.069 Y102.69 E0.3003
G1 X130.13 Y102.799 E0.3287
G1 X128.995 Y103.132 E0.3641
G1 X127.725 Y103.686 E0.4055
G1 X127.05 Y104.063 E0.4287
G1 X126.45 Y103.573 E0.4519
G1 X126.669 Y102.881 E0.4736
G1 X126.664 Y102.268 E0.492
G1 X126.495 Y102.01 E0.5012
G1 X126.074 Y101.873 E0.5144
G1 X125.208 Y101.957 E0.5405
G1 X123.973 Y102.358 E0.5794
G1 X123.392 Y102.637 E0.5987
G1 X120.857 Y99.548 E0.7183
G1 X117.997 Y97.202 E0.829
G1 X118.835 Y95.456 E0.887
G1 X119.237 Y94.221 E0.9259
G1 X119.319 Y93.355 E0.9519
G1 X119.181 Y92.934 E0.9652
G1 X118.923 Y92.764 E0.9744
G1 X118.312 Y92.76 E0.9927
G1 X117.302 Y93.078 E1.0244
G1 X116.556 Y93.466 E1.0496
G1 X116.382 Y92.422 E1.0812
G1 X116.692 Y91.869 E1.1002
G1 X117.245 Y90.601 E1.1416
G1 X117.578 Y89.465 E1.1771
G1 X117.688 Y88.525 E1.2054
G1 X117.595 Y87.843 E1.226
G1 X117.364 Y87.432 E1.2401
G1 X117.016 Y87.206 E1.2525
G1 X116.46 Y87.131 E1.2693
G1 X115.664 Y87.276 E1.2935
G1 X114.681 Y87.676 E1.3253
G1 X113.576 Y88.327 E1.3637
G1 X112.406 Y89.206 E1.4075
G1 X111.227 Y90.275 E1.4552
G1 X110.712 Y90.825 E1.4777
G1 X110.068 Y90.671 E1.4975
G1 X109.929 Y90.197 E1.5123
G1 X109.661 Y89.945 E1.5233
G1 X109.197 Y89.885 E1.5374
G1 X108.39 Y90.123 E1.5625
G1 X107.316 Y90.739 E1.5996
G1 X106.066 Y91.718 E1.6471
G1 X104.712 Y93.018 E1.7033
G1 X103.313 Y94.586 E1.7662
G1 X103.131 Y94.819 E1.7751
G1 X100.736 Y95.546 E1.85
G1 X97.52 Y97.271 E1.9592
G1 X94.745 Y99.549 E2.0667
G1 X92.448 Y102.347 E2.1751
G1 X90.742 Y105.539 E2.2834
G1 X89.692 Y109.002 E2.3917
G1 X89.339 Y112.577 E2.4993
G1 Y112.632 E2.5009
G1 X89.688 Y116.174 E2.6074
G1 X89.698 Y116.227 E2.6091
G1 X90.756 Y119.697 E2.7177
G1 X92.458 Y122.875 E2.8256
G1 X94.756 Y125.671 E2.9339
G1 X97.532 Y127.948 E3.0414
G1 X100.71 Y129.65 E3.1493
G1 X104.179 Y130.709 E3.2579
G1 X104.232 Y130.718 E3.2595
G1 X107.773 Y131.066 E3.366
G1 X107.829 E3.3677
G1 X111.37 Y130.718 E3.4742
G1 X111.424 Y130.709 E3.4758
G1 X114.867 Y129.663 E3.5835
G1 X118.061 Y127.955 E3.692
G1 X120.839 Y125.676 E3.7995
G1 X123.135 Y122.886 E3.9077
G1 X124.846 Y119.696 E4.016
G1 X125.566 Y117.344 E4.0897
G1 X127.129 Y115.95 E4.1524
G1 X128.429 Y114.595 E4.2086
G1 X129.409 Y113.345 E4.2561
G1 X130.024 Y112.272 E4.2931
G1 X130.262 Y111.465 E4.3183
G1 X130.202 Y111 E4.3324
G1 X129.951 Y110.732 E4.3434
G1 X129.334 Y110.552 E4.3626
G1 X128.479 Y110.573 E4.3882
G92 E0
; Repositioning
G1 X129.029 Y110.19 F4800
; Contour
G1 X129.193 Y109.776 E0.0133 F1200
G1 X129.583 Y109.41 E0.0293
G1 X130.674 Y108.207 E0.0779
G1 X131.574 Y107.007 E0.1229
G1 X132.25 Y105.861 E0.1627
G1 X132.676 Y104.818 E0.1964
G1 X132.838 Y103.926 E0.2236
G1 X132.745 Y103.229 E0.2446
G1 X132.422 Y102.735 E0.2623
G1 X131.871 Y102.426 E0.2812
G1 X131.073 Y102.317 E0.3053
G1 X130.056 Y102.435 E0.3359
G1 X128.868 Y102.784 E0.373
G1 X127.561 Y103.354 E0.4157
G1 X127.089 Y103.617 E0.4319
G1 X126.878 Y103.446 E0.44
G1 X127.04 Y102.936 E0.456
G1 X127.033 Y102.156 E0.4794
G1 X126.733 Y101.699 E0.4957
G1 X126.116 Y101.498 E0.5152
G1 X125.132 Y101.592 E0.5447
G1 X123.835 Y102.014 E0.5856
G1 X123.494 Y102.178 E0.5969
G1 X121.12 Y99.286 E0.7089
G1 X118.456 Y97.1 E0.8121
G1 X119.179 Y95.594 E0.8621
G1 X119.601 Y94.297 E0.9029
G1 X119.695 Y93.313 E0.9325
G1 X119.493 Y92.696 E0.9519
G1 X119.035 Y92.395 E0.9683
G1 X118.256 Y92.39 E0.9916
G1 X117.16 Y92.735 E1.026
G1 X116.837 Y92.903 E1.0369
G1 X116.768 Y92.49 E1.0494
G1 X117.024 Y92.033 E1.0651
G1 X117.594 Y90.727 E1.1078
G1 X117.942 Y89.539 E1.1448
G1 X118.06 Y88.521 E1.1755
G1 X117.952 Y87.724 E1.1996
G1 X117.643 Y87.171 E1.2185
G1 X117.148 Y86.85 E1.2362
G1 X116.451 Y86.757 E1.2573
G1 X115.56 Y86.919 E1.2844
G1 X114.516 Y87.343 E1.3181
G1 X113.37 Y88.019 E1.3579
G1 X112.171 Y88.921 E1.4028
G1 X110.967 Y90.011 E1.4514
G1 X110.589 Y90.415 E1.468
G1 X110.363 Y90.361 E1.475
G1 X110.256 Y89.996 E1.4864
G1 X109.827 Y89.594 E1.504
G1 X109.167 Y89.508 E1.5239
G1 X108.244 Y89.781 E1.5527
G1 X107.109 Y90.431 E1.5919
G1 X105.823 Y91.439 E1.6408
G1 X104.445 Y92.761 E1.698
G1 X103.029 Y94.349 E1.7616
G1 X102.911 Y94.499 E1.7673
G1 X100.593 Y95.202 E1.8399
G1 X97.314 Y96.963 E1.9513
G1 X94.482 Y99.286 E2.0609
G1 X92.139 Y102.14 E2.1715
G1 X90.399 Y105.396 E2.282
G1 X89.327 Y108.93 E2.3925
G1 X88.969 Y112.559 E2.5017
G1 Y112.65 E2.5044
G1 X89.322 Y116.224 E2.6119
G1 X89.337 Y116.313 E2.6146
G1 X90.412 Y119.839 E2.725
G1 X92.149 Y123.082 E2.8351
G1 X94.493 Y125.934 E2.9456
G1 X97.325 Y128.257 E3.0552
G1 X100.567 Y129.993 E3.1653
G1 X104.092 Y131.069 E3.2756
G1 X104.182 Y131.085 E3.2784
G1 X107.755 Y131.436 E3.3858
G1 X107.847 E3.3886
G1 X111.42 Y131.085 E3.4961
G1 X111.51 Y131.069 E3.4988
G1 X115.009 Y130.007 E3.6083
G1 X118.268 Y128.264 E3.7189
G1 X121.102 Y125.939 E3.8286
G1 X123.444 Y123.093 E3.939
G1 X125.19 Y119.839 E4.0495
G1 X125.89 Y117.551 E4.1211
G1 X127.386 Y116.216 E4.1811
G1 X128.709 Y114.838 E4.2383
G1 X129.717 Y113.552 E4.2872
G1 X130.367 Y112.418 E4.3263
G1 X130.639 Y111.495 E4.3551
G1 X130.554 Y110.834 E4.3751
G1 X130.152 Y110.405 E4.3927
G1 X129.382 Y110.181 E4.4167
G1 X129.029 Y110.19 E4.4273
G92 E0
; Repositioning
G1 X128.21 Y110.056 F4800
G1 X128.526 Y109.531
G1 X130.235 Y107.608
; Infill
G1 X127.069 Y104.442 E0.1341 F2400
G1 X127.014 Y104.472 E0.1359
G1 X126.056 Y103.691 E0.173
G1 X126.119 Y103.491 E0.1792
G1 X125.007 Y102.38 E0.2263
G1 X124.1 Y102.674 E0.2548
G1 X123.299 Y103.059 E0.2814
G1 X123.261 Y103.013 E0.2832
G1 X98.3 Y127.974 E1.3399
G1 X97.722 Y127.664 E1.3595
G1 X95.102 Y125.515 E1.4609
G1 X120.711 Y99.906 E2.545
G1 X120.615 Y99.79 E2.5495
G1 X117.624 Y97.336 E2.6654
G1 X92.579 Y122.381 E3.7256
G1 X91.071 Y119.566 E3.8212
G1 X90.979 Y119.263 E3.8307
G1 X101.142 Y129.426 E4.2609
G1 X102.186 Y129.745 E4.2936
G1 X127.989 Y103.942 E5.3859
G1 X129.111 Y103.453 E5.4225
G1 X130.198 Y103.133 E5.4564
G1 X131.066 Y103.033 E5.4826
G1 X131.356 Y103.072 E5.4914
G1 X132.108 Y103.823 E5.5232
G1 X132.119 Y103.909 E5.5258
G1 X131.991 Y104.619 E5.5474
G1 X131.612 Y105.545 E5.5773
G1 X130.994 Y106.594 E5.6138
G1 X106.945 Y130.643 E6.6318
G1 X107.79 Y130.726 E6.6572
G1 X107.812 E6.6579
G1 X108.073 Y130.7 E6.6658
G1 X89.705 Y112.333 E7.4433
G1 E3.4433
G92 E0
; Repositioning with retraction
G1 X89.966 Y112.461 F4800
G1 X116.885 Y128.199
G1 E4 F2400
G92 E0
; Infill
G1 X92.207 Y103.52 E1.0447
G1 X92.732 Y102.537 E1.0781
G1 X94.602 Y100.259 E1.1663
G1 X120.147 Y125.804 E2.2477
G1 X120.598 Y125.434 E2.2652
G1 X122.781 Y122.781 E2.368
G1 X97.625 Y97.625 E3.433
G1 X97.71 Y97.555 E3.4363
G1 X100.867 Y95.861 E3.5435
G1 X101.366 Y95.71 E3.5591
G1 X124.693 Y119.036 E4.5466
G1 X124.906 Y118.339 E4.5684
G1 X113.531 Y129.713 E5.05
G1 X112.926 Y129.897 E5.0689
G1 X90.509 Y107.479 E6.0179
G1 X90.508 Y107.482 E6.018
G1 X102.678 Y95.312 E6.5332
G1 X103.333 Y95.113 E6.5536
G1 X103.574 Y94.804 E6.5654
G1 X104.773 Y93.46 E6.6193
G1 X126.954 Y115.641 E7.5583
G1 X128.172 Y114.372 E7.6109
G1 X129.126 Y113.155 E7.6572
G1 X129.49 Y112.52 E7.6792
G1 X107.815 Y90.845 E8.5967
G1 X108.525 Y90.438 E8.6212
G1 X109.225 Y90.232 E8.6431
G1 X109.509 Y90.268 E8.6516
G1 X109.629 Y90.381 E8.6566
G1 X109.796 Y90.956 E8.6745
G1 X110.825 Y91.202 E8.7061
G1 X111.466 Y90.518 E8.7342
G1 X112.347 Y89.719 E8.7698
G1 X116.234 Y93.607 E8.9344
G1 X116.158 Y93.146 E8.9484
G1 X90.76 Y118.544 E10.0235
G1 X90.029 Y116.147 E10.0985
G1 X90.026 Y116.127 E10.0991
G1 X89.801 Y113.846 E10.1678
G1 X116.106 Y87.541 E11.2813
G1 X115.868 Y87.584 E11.2885
G1 X117.289 Y89.005 E11.3487
G92 E0
; Repositioning
G1 X116.95 Y89.42 F4800
G1 X115.777 Y92.535
G1 X116.503 Y93.876
; Infill
G1 X118.336 Y95.709 E0.0776 F2400
G1 E-3.9224
G92 E0
         ; New Layer
; layer 10, Z = 2.239
; layer time : 00:00:28
; Repositioning
G0 Z2.239 F1000.02
; Repositioning with retraction
G1 X118.304 Y97.04 F4800
G1 X118.306 Y97.079
G1 X128.479 Y110.573
G1 E4 F2400
G92 E0
; Contour
G1 X128.879 Y109.563 E0.0325
G1 X129.319 Y109.15 E0.0506
G1 X130.388 Y107.971 E0.0982
G1 X131.266 Y106.802 E0.142
G1 X131.918 Y105.697 E0.1804
G1 X132.319 Y104.714 E0.2122
G1 X132.463 Y103.917 E0.2364
G1 X132.389 Y103.361 E0.2532
G1 X132.162 Y103.013 E0.2656
G1 X131.752 Y102.783 E0.2797
G1 X131.069 Y102.69 E0.3003
G1 X130.13 Y102.799 E0.3287
G1 X128.995 Y103.132 E0.3641
G1 X127.725 Y103.686 E0.4055
G1 X127.05 Y104.063 E0.4287
G1 X126.45 Y103.573 E0.4519
G1 X126.669 Y102.881 E0.4736
G1 X126.664 Y102.268 E0.492
G1 X126.495 Y102.01 E0.5012
G1 X126.074 Y101.873 E0.5144
G1 X125.208 Y101.957 E0.5405
G1 X123.973 Y102.358 E0.5794
G1 X123.392 Y102.637 E0.5987
G1 X120.857 Y99.548 E0.7183
G1 X117.997 Y97.202 E0.829
G1 X118.835 Y95.456 E0.887
G1 X119.237 Y94.221 E0.9259
G1 X119.319 Y93.355 E0.9519
G1 X119.181 Y92.934 E0.9652
G1 X118.923 Y92.764 E0.9744
G1 X118.312 Y92.76 E0.9927
G1 X117.302 Y93.078 E1.0244
G1 X116.556 Y93.466 E1.0496
G1 X116.382 Y92.422 E1.0812
G1 X116.692 Y91.869 E1.1002
G1 X117.245 Y90.601 E1.1416
G1 X117.578 Y89.465 E1.1771
G1 X117.688 Y88.525 E1.2054
G1 X117.595 Y87.843 E1.226
G1 X117.364 Y87.432 E1.2401
G1 X117.016 Y87.206 E1.2525
G1 X116.46 Y87.131 E1.2693
G1 X115.664 Y87.276 E1.2935
G1 X114.681 Y87.676 E1.3253
G1 X113.576 Y88.327 E1.3637
G1 X112.406 Y89.206 E1.4075
G1 X111.227 Y90.275 E1.4552
G1 X110.712 Y90.825 E1.4777
G1 X110.068 Y90.671 E1.4975
G1 X109.929 Y90.197 E1.5123
G1 X109.661 Y89.945 E1.5233
G1 X109.197 Y89.885 E1.5374
G1 X108.39 Y90.123 E1.5625
G1 X107.316 Y90.739 E1.5996
G1 X106.066 Y91.718 E1.6471
G1 X104.712 Y93.018 E1.7033
G1 X103.313 Y94.586 E1.7662
G1 X103.131 Y94.819 E1.7751
G1 X100.736 Y95.546 E1.85
G1 X97.518 Y97.273 E1.9593
G1 X94.745 Y99.549 E2.0667
G1 X92.448 Y102.347 E2.1751
G1 X90.742 Y105.539 E2.2834
G1 X89.692 Y109.002 E2.3917
G1 X89.34 Y112.572 E2.4991
G1 Y112.637 E2.5011
G1 X89.688 Y116.167 E2.6072
G1 X89.699 Y116.231 E2.6092
G1 X90.757 Y119.699 E2.7177
G1 X92.459 Y122.876 E2.8256
G1 X94.757 Y125.671 E2.9339
G1 X97.53 Y127.947 E3.0413
G1 X100.708 Y129.649 E3.1492
G1 X104.175 Y130.707 E3.2577
G1 X104.239 Y130.719 E3.2597
G1 X107.768 Y131.065 E3.3658
G1 X107.834 E3.3678
G1 X111.363 Y130.719 E3.474
G1 X111.428 Y130.707 E3.4759
G1 X114.867 Y129.663 E3.5835
G1 X118.062 Y127.955 E3.6919
G1 X120.838 Y125.677 E3.7994
G1 X123.134 Y122.888 E3.9076
G1 X124.845 Y119.699 E4.0159
G1 X125.566 Y117.344 E4.0897
G1 X127.129 Y115.95 E4.1523
G1 X128.429 Y114.595 E4.2085
G1 X129.409 Y113.345 E4.2561
G1 X130.024 Y112.272 E4.2931
G1 X130.262 Y111.465 E4.3183
G1 X130.202 Y111 E4.3323
G1 X129.951 Y110.732 E4.3433
G1 X129.334 Y110.552 E4.3626
G1 X128.479 Y110.573 E4.3882
G92 E0
; Repositioning
G1 X129.029 Y110.19 F4800
; Contour
G1 X129.193 Y109.776 E0.0133 F1200
G1 X129.583 Y109.41 E0.0293
G1 X130.674 Y108.207 E0.0779
G1 X131.574 Y107.007 E0.1229
G1 X132.25 Y105.861 E0.1627
G1 X132.676 Y104.818 E0.1964
G1 X132.838 Y103.926 E0.2236
G1 X132.745 Y103.229 E0.2446
G1 X132.422 Y102.735 E0.2623
G1 X131.871 Y102.426 E0.2812
G1 X131.073 Y102.317 E0.3053
G1 X130.056 Y102.435 E0.3359
G1 X128.868 Y102.784 E0.373
G1 X127.561 Y103.354 E0.4157
G1 X127.089 Y103.617 E0.4319
G1 X126.878 Y103.446 E0.44
G1 X127.04 Y102.936 E0.456
G1 X127.033 Y102.156 E0.4794
G1 X126.733 Y101.699 E0.4957
G1 X126.116 Y101.498 E0.5152
G1 X125.132 Y101.592 E0.5447
G1 X123.835 Y102.014 E0.5856
G1 X123.494 Y102.178 E0.5969
G1 X121.12 Y99.286 E0.7089
G1 X118.456 Y97.1 E0.8121
G1 X119.179 Y95.594 E0.8621
G1 X119.601 Y94.297 E0.9029
G1 X119.695 Y93.313 E0.9325
G1 X119.493 Y92.696 E0.9519
G1 X119.035 Y92.395 E0.9683
G1 X118.256 Y92.39 E0.9916
G1 X117.16 Y92.735 E1.026
G1 X116.837 Y92.903 E1.0369
G1 X116.768 Y92.49 E1.0494
G1 X117.024 Y92.033 E1.0651
G1 X117.594 Y90.727 E1.1078
G1 X117.942 Y89.539 E1.1448
G1 X118.06 Y88.521 E1.1755
G1 X117.952 Y87.724 E1.1996
G1 X117.643 Y87.171 E1.2185
G1 X117.148 Y86.85 E1.2362
G1 X116.451 Y86.757 E1.2573
G1 X115.56 Y86.919 E1.2844
G1 X114.516 Y87.343 E1.3181
G1 X113.37 Y88.019 E1.3579
G1 X112.171 Y88.921 E1.4028
G1 X110.967 Y90.011 E1.4514
G1 X110.589 Y90.415 E1.468
G1 X110.363 Y90.361 E1.475
G1 X110.256 Y89.996 E1.4864
G1 X109.827 Y89.594 E1.504
G1 X109.167 Y89.508 E1.5239
G1 X108.244 Y89.781 E1.5527
G1 X107.109 Y90.431 E1.5919
G1 X105.823 Y91.439 E1.6408
G1 X104.445 Y92.761 E1.698
G1 X103.029 Y94.349 E1.7616
G1 X102.911 Y94.499 E1.7673
G1 X100.593 Y95.202 E1.8399
G1 X97.311 Y96.964 E1.9514
G1 X94.482 Y99.286 E2.0609
G1 X92.139 Y102.14 E2.1715
G1 X90.399 Y105.396 E2.282
G1 X89.327 Y108.93 E2.3925
G1 X88.97 Y112.553 E2.5015
G1 Y112.656 E2.5046
G1 X89.321 Y116.217 E2.6117
G1 X89.339 Y116.317 E2.6147
G1 X90.414 Y119.842 E2.725
G1 X92.15 Y123.083 E2.8351
G1 X94.494 Y125.934 E2.9456
G1 X97.324 Y128.256 E3.0552
G1 X100.565 Y129.992 E3.1652
G1 X104.088 Y131.068 E3.2755
G1 X104.188 Y131.085 E3.2785
G1 X107.75 Y131.435 E3.3857
G1 X107.852 E3.3887
G1 X111.414 Y131.085 E3.4958
G1 X111.514 Y131.068 E3.4989
G1 X115.009 Y130.007 E3.6082
G1 X118.268 Y128.264 E3.7189
G1 X121.1 Y125.94 E3.8285
G1 X123.442 Y123.095 E3.9388
G1 X125.188 Y119.842 E4.0494
G1 X125.89 Y117.551 E4.1211
G1 X127.386 Y116.216 E4.1811
G1 X128.709 Y114.838 E4.2383
G1 X129.717 Y113.552 E4.2872
G1 X130.367 Y112.418 E4.3263
G1 X130.639 Y111.495 E4.3551
G1 X130.554 Y110.834 E4.3751
G1 X130.152 Y110.405 E4.3927
G1 X129.382 Y110.181 E4.4167
G1 X129.029 Y110.19 E4.4273
G92 E0
; Repositioning
G1 X128.21 Y110.056 F4800
G1 X128.526 Y109.531
G1 X130.235 Y107.608
; Infill
G1 X127.069 Y104.442 E0.1341 F2400
G1 X127.014 Y104.472 E0.1359
G1 X126.056 Y103.691 E0.173
G1 X126.119 Y103.491 E0.1792
G1 X125.007 Y102.38 E0.2263
G1 X124.1 Y102.674 E0.2548
G1 X123.299 Y103.059 E0.2814
G1 X123.261 Y103.013 E0.2832
G1 X98.301 Y127.974 E1.3399
G1 X97.72 Y127.663 E1.3596
G1 X95.102 Y125.515 E1.4609
G1 X120.711 Y99.906 E2.545
G1 X120.615 Y99.79 E2.5495
G1 X117.624 Y97.336 E2.6653
G1 X92.579 Y122.381 E3.7256
G1 X91.073 Y119.568 E3.8211
G1 X90.98 Y119.264 E3.8306
G1 X101.141 Y129.425 E4.2608
G1 X102.186 Y129.745 E4.2935
G1 X127.989 Y103.942 E5.3858
G1 X129.111 Y103.453 E5.4225
